!!!!SEGMENT: pl-sa--190-a-v-20--007_pych-leopold--missa-in-d-benedictus.krn
!!!cenid: 17xx:1579
!!!COM: Pych, Leopold
!!!COM-rismID: pe30018039
!!!CDT: <1758->1774
!!!CNT:
!!!OPR: Missa in D
!!!OTL: Benedictus
!!!OMV: 007
!!!PDT:
!!!AGN: Sacred; Mass
!!!SMS-siglum: PL-SA
!!!SMS-shelfmark: 190/A V 20
!!!SMS-shelfwork: 001-007 M
!!!SMS-variant:
!!!SMS-altvar:
!!!NIFC-rismSourceID: 1001035913
!!!NIFC-islandoraID:
!!!URL-pdf-islandora:
!!!URL-scan: https://bc.bdsandomierz.pl/dlibra/publication/1527/edition/1495/content @EN{Scan in the Sandomierz Diocese Digital Library} @PL{Skany w portalu Cyfrowa Biblioteka Diecezjalna w Sandomierzu}
!!!ONB-nifc: UWAGA: części Mszy: 1. Sinfonia, 2. Kyrie, 3. Gloria, 4. Credo, 5. Sanctus, 6. Osanna, 7. Benedictus, 8. Agnus Dei, 9. Dona nobis
!!!AIN: 1 alto 1 bass 2 cor 1 organ 1 soprn 1 tenor 2 violn
!!!key: A
**kern	**fba	**dynam	**kern	**dynam	**kern	**dynam	**kern	**text	**kern	**text	**kern	**text	**kern	**kern	**kern	**dynam
*	*	*	*group3	*	*group3	*	*group2	*	*group2	*	*group2	*	*group2	*group1	*group1	*
*part9	*part9	*part9	*part8	*part8	*part7	*part7	*part6	*part6	*part5	*part5	*part4	*part4	*part3	*part2	*part1	*part1
*staff9	*	*	*staff8	*	*staff7	*	*staff6	*staff6	*staff5	*staff5	*staff4	*staff4	*staff3	*staff2	*staff1	*
*I"Fundamento	*	*	*I"Violino 2do:	*	*I"Violino Primo:	*	*I"Baſso	*	*I"Tenore.	*	*I"Alto	*	*I"Canto	*I"Cornu 2do Ex D:	*I"Cornu Primo. Ex D#	*
*I'bc	*	*	*I'vl 2	*	*I'vl 1	*	*I'B	*	*I'T	*	*I'A	*	*I'S	*I'cor 2 in D	*I'cor 1 in D#	*
*Iorgan	*	*	*Ivioln	*	*Ivioln	*	*Ibass	*	*Itenor	*	*Ialto	*	*Isoprn	*Icor	*Icor	*
*ICklav	*	*	*ICstr	*	*ICstr	*	*ICvox	*	*ICvox	*	*ICvox	*	*ICvox	*ICbras	*ICbras	*
*IGcont	*	*	*IGacmp	*	*IGacmp	*	*IGcoro	*	*IGcoro	*	*IGcoro	*	*IGcoro	*IGacmp	*IGacmp	*
*clefF4	*	*	*clefG2	*	*clefG2	*	*clefF4	*	*clefC4	*	*clefC3	*	*	*clefG2	*clefG2	*
*	*	*	*	*	*	*	*	*	*	*	*	*	*	*ITrd-1c-2	*ITrd-1c-2	*
*k[f#g#c#]	*	*	*k[f#g#c#]	*	*k[f#g#c#]	*	*	*	*k[c#g#f#]	*	*	*	*	*	*	*
*A:	*	*	*A:	*	*A:	*	*A:	*	*A:	*	*A:	*	*A:	*A:	*A:	*
*M4/4	*	*	*M4/4	*	*M4/4	*	*	*	*M4/4	*	*	*	*	*	*	*
*met(C.)	*	*	*met(C.)	*	*met(C.)	*	*	*	*met(C.)	*	*	*	*	*	*	*
*all\right	*	*	*all\right	*	*all\right	*	*all\right	*	*all\right	*	*all\right	*	*	*all\right	*all\right	*
=1	=1	=1	=1	=1	=1	=1	=1	=1	=1	=1	=1	=1	=1	=1	=1	=1
!	!	!	!	!	!	!	!	!	!LO:TX:t=P:problem=przy kluczu błędnie c# G# A#	!	!	!	!	!	!	!
!	!	!	!LO:TX:a:i:t=Solo	!	!LO:TX:a:i:t=Solo	!	!	!	!LO:TX:a:i:t=Solo	!	!	!	!	!	!	!
!LO:TX:a:B:t=andan molto	!	!	!LO:TX:a:B:t=andante	!	!LO:TX:a:B:t=andante	!	!LO:TX:a:B:t=Benedictus\nTacet	!	!LO:TX:a:B:t=andante	!	!LO:TX:a:B:t=Benedictus\nTacet	!	!LO:TX:t=P:problem=zgodnie z RISM "S part missing"	!LO:TX:a:B:t=Benedictus Tacet	!LO:TX:a:B:t=Benedictus Tacet	!
8AA/L	.	.	8c#/L	.	[4a/	.	1ryy	.	00r	.	1ryy	.	1ryy	1ryy	1ryy	.
8AA/	.	.	8c#/	.	.	.	.	.	.	.	.	.	.	.	.	.
*	*	*	*	*	*Xtuplet	*	*	*	*	*	*	*	*	*	*	*
8AA/	.	.	8c#/	.	24a\LL]	.	.	.	.	.	.	.	.	.	.	.
.	.	.	.	.	24ee\	.	.	.	.	.	.	.	.	.	.	.
.	.	.	.	.	24dd\JJ	.	.	.	.	.	.	.	.	.	.	.
8AA/J	.	.	8c#/J	.	24cc#\LL	.	.	.	.	.	.	.	.	.	.	.
.	.	.	.	.	24b\	.	.	.	.	.	.	.	.	.	.	.
.	.	.	.	.	24a\JJ	.	.	.	.	.	.	.	.	.	.	.
8AA/L	.	.	8d/L	.	16b/LL	.	.	.	.	.	.	.	.	.	.	.
.	.	.	.	.	16g#X/J	.	.	.	.	.	.	.	.	.	.	.
8AA/	.	.	16.c#/L	.	8a/J	.	.	.	.	.	.	.	.	.	.	.
.	.	.	32d/JJk	.	.	.	.	.	.	.	.	.	.	.	.	.
!	!	!	!LO:TX:t=P:problem=mixed beam	!	!	!	!	!	!	!	!	!	!	!	!	!
8AA/	.	.	8e/L	.	8r	.	.	.	.	.	.	.	.	.	.	.
8AA/J	.	.	8cc#\J	.	8aa\	.	.	.	.	.	.	.	.	.	.	.
=2	=2	=2	=2	=2	=2	=2	=2	=2	=2	=2	=2	=2	=2	=2	=2	=2
.	.	.	8qqcc#/	.	(<8qqaa/	.	.	.	.	.	.	.	.	.	.	.
4E\	.	.	8.b/L	.	8.gg#\L)	.	1ryy	.	.	.	1ryy	.	1ryy	1ryy	1ryy	.
.	.	.	16g#/Jk	.	16b\K	.	.	.	.	.	.	.	.	.	.	.
8r	.	.	8a/L	.	8cc#\	.	.	.	.	.	.	.	.	.	.	.
8E\	2	.	8b/J	.	8dd\J	.	.	.	.	.	.	.	.	.	.	.
!LO:TX:t=P:problem=mixed beam	!	!	!	!	!	!	!	!	!	!	!	!	!	!	!	!
8A\L	.	.	16.a/LL	.	16.cc#\LL	.	.	.	.	.	.	.	.	.	.	.
.	.	.	32b/JK	.	32dd\JK	.	.	.	.	.	.	.	.	.	.	.
8AA/	.	.	8cc#/J	.	8ee\J	.	.	.	.	.	.	.	.	.	.	.
8C#/	.	.	8r	.	8r	.	.	.	.	.	.	.	.	.	.	.
8AA/J	.	.	8cc#\	.	8aa\	.	.	.	.	.	.	.	.	.	.	.
!LO:LB:g=original	!	!	!	!	!	!	!	!	!	!	!	!	!	!	!	!
=3	=3	=3	=3	=3	=3	=3	=3	=3	=3	=3	=3	=3	=3	=3	=3	=3
*k[f#c#g#]	*	*	*	*	*	*	*	*	*	*	*	*	*	*	*	*
!	!	!	!	!	!LO:TX:t=P:problem=mixed beam	!	!	!	!	!	!	!	!	!	!	!
4E\	.	.	(16cc#\LL	.	(16aa\LL	.	1ryy	.	.	.	1ryy	.	1ryy	1ryy	1ryy	.
.	.	.	16b\)	.	16gg#\)	.	.	.	.	.	.	.	.	.	.	.
.	.	.	(16dd\	.	16bb\|	.	.	.	.	.	.	.	.	.	.	.
.	.	.	16g#\JJ)	.	16b/JJ|>	.	.	.	.	.	.	.	.	.	.	.
4EE/	.	.	16g#/KL	.	16b\KL	.	.	.	.	.	.	.	.	.	.	.
.	.	.	8a/	.	8cc#\	.	.	.	.	.	.	.	.	.	.	.
.	.	.	16b/Jk	.	16dd\Jk	.	.	.	.	.	.	.	.	.	.	.
!LO:TX:t=P:problem=mixed beam	!	!	!	!	!	!	!	!	!	!	!	!	!	!	!	!
8AA/L	.	.	(32a/LLL	.	(32cc#\LLL	.	.	.	.	.	.	.	.	.	.	.
.	.	.	32b/	.	32dd\	.	.	.	.	.	.	.	.	.	.	.
.	.	.	32cc#/	.	32ee\	.	.	.	.	.	.	.	.	.	.	.
.	.	.	32dd/JJJ)	.	32ff#\JJJ)	.	.	.	.	.	.	.	.	.	.	.
8A\	.	.	4cc#\	.	4ee\	.	.	.	.	.	.	.	.	.	.	.
8c#\	.	.	.	.	.	.	.	.	.	.	.	.	.	.	.	.
8A\J	.	.	8ee\	.	8ccc#\	.	.	.	.	.	.	.	.	.	.	.
!	!	!	!	!	!LO:LB:g=original	!	!	!	!	!	!	!	!	!	!	!
=4	=4	=4	=4	=4	=4	=4	=4	=4	=4	=4	=4	=4	=4	=4	=4	=4
8r	.	.	(32g#/LLL	.	(32b\LLL	.	1ryy	.	.	.	1ryy	.	1ryy	1ryy	1ryy	.
.	.	.	32a/	.	32cc#\	.	.	.	.	.	.	.	.	.	.	.
.	.	.	32b/	.	32dd\	.	.	.	.	.	.	.	.	.	.	.
.	.	.	32cc#/JJJ)	.	32ee\JJJ)	.	.	.	.	.	.	.	.	.	.	.
8E\L	.	.	4b\	.	4dd\	.	.	.	.	.	.	.	.	.	.	.
8G#\	.	.	.	.	.	.	.	.	.	.	.	.	.	.	.	.
8E\J	.	.	8dd\	.	8bb\	.	.	.	.	.	.	.	.	.	.	.
!	!	!	!	!	!LO:N:vis=16	!	!	!	!	!	!	!	!	!	!	!
8AA/L	6	.	16cc#\LL	.	32cc#\LLL	.	.	.	.	.	.	.	.	.	.	.
!	!	!	!	!	!LO:N:vis=16	!	!	!	!	!	!	!	!	!	!	!
.	.	.	.	.	32aa\	.	.	.	.	.	.	.	.	.	.	.
!	!	!	!	!	!LO:N:vis=16	!	!	!	!	!	!	!	!	!	!	!
.	.	.	16dd\JJ	.	32gg#\	.	.	.	.	.	.	.	.	.	.	.
!	!	!	!	!	!LO:N:vis=16	!	!	!	!	!	!	!	!	!	!	!
.	.	.	.	.	32ff#\JJJ	.	.	.	.	.	.	.	.	.	.	.
.	.	.	.	.	(<8qqff#/	.	.	.	.	.	.	.	.	.	.	.
8BB/	.	.	8.eeM\L	.	8.eeM\L)	.	.	.	.	.	.	.	.	.	.	.
8C#/	.	.	.	.	.	.	.	.	.	.	.	.	.	.	.	.
.	.	.	(32dd\LL	.	(32dd\LL	.	.	.	.	.	.	.	.	.	.	.
.	.	.	32ee\JJJ)	.	32ee\JJJ)	.	.	.	.	.	.	.	.	.	.	.
!	!	!	!LO:N:vis=8	!	!LO:TX:t=P:problem=mixed beam	!	!	!	!	!	!	!	!	!	!	!
8E/J	.	.	16ff#\LL	.	16ff#\LL	.	.	.	.	.	.	.	.	.	.	.
!	!	!	!LO:N:vis=8	!	!	!	!	!	!	!	!	!	!	!	!	!
.	.	.	16a\JJ	.	16a/JJ	.	.	.	.	.	.	.	.	.	.	.
!	!	!	!LO:LB:g=original	!	!	!	!	!	!	!	!	!	!	!	!	!
=5	=5	=5	=5	=5	=5	=5	=5	=5	=5	=5	=5	=5	=5	=5	=5	=5
8E\L	.	.	8.g#m</L	.	16.g#/LL	.	1ryy	.	00r	.	1ryy	.	1ryy	1ryy	1ryy	.
.	.	.	.	.	32f#/JK	.	.	.	.	.	.	.	.	.	.	.
8E\	.	.	.	.	8e/J	.	.	.	.	.	.	.	.	.	.	.
.	.	.	(32f#/LL	.	.	.	.	.	.	.	.	.	.	.	.	.
.	.	.	32e/JJJ)	.	.	.	.	.	.	.	.	.	.	.	.	.
8D\	4 2	.	8r	.	8r	.	.	.	.	.	.	.	.	.	.	.
8C#\J	.	.	8e/	.	8e/	.	.	.	.	.	.	.	.	.	.	.
!	!	!	!LO:TUP:b:problem=klamra łukowa	!	!LO:TUP:b:problem=klamra łukowa	!	!	!	!	!	!	!	!	!	!	!
8D\L	.	.	24f#/LL	.	24f#/LL	.	.	.	.	.	.	.	.	.	.	.
.	.	.	24g#/	.	24g#/	.	.	.	.	.	.	.	.	.	.	.
.	.	.	24a/JJ	.	24a/JJ	.	.	.	.	.	.	.	.	.	.	.
!	!	!	!LO:TUP:b:problem=klamra łukowa	!	!LO:TUP:b:problem=klamra łukowa	!	!	!	!	!	!	!	!	!	!	!
8D\	.	.	24b/LL	.	24b/LL	.	.	.	.	.	.	.	.	.	.	.
.	.	.	24cc#/	.	24cc#/	.	.	.	.	.	.	.	.	.	.	.
.	.	.	24dd/JJ	.	24dd/JJ	.	.	.	.	.	.	.	.	.	.	.
!	!	!	!LO:TUP:b:problem=klamra łukowa	!	!LO:TUP:a:problem=klamra łukowa	!	!	!	!	!	!	!	!	!	!	!
8E\	6	.	24cc#/LL	.	24cc#\LL	.	.	.	.	.	.	.	.	.	.	.
.	.	.	24b/	.	24b\	.	.	.	.	.	.	.	.	.	.	.
.	.	.	24a/JJ	.	24a\JJ	.	.	.	.	.	.	.	.	.	.	.
*	*	*	*Xtuplet	*	*	*	*	*	*	*	*	*	*	*	*	*
!	!	!	!LO:TUP:b:problem=klamra łukowa	!	!LO:TUP:b:problem=klamra łukowa	!	!	!	!	!	!	!	!	!	!	!
8E\J	.	.	24g#/LL	.	24g#/LL	.	.	.	.	.	.	.	.	.	.	.
.	.	.	24a/	.	24a/	.	.	.	.	.	.	.	.	.	.	.
.	.	.	24b/JJ	.	24b/JJ	.	.	.	.	.	.	.	.	.	.	.
=6	=6	=6	=6	=6	=6	=6	=6	=6	=6	=6	=6	=6	=6	=6	=6	=6
!	!	!	!LO:TUP:a:problem=klamra łukowa	!	!LO:TUP:a:problem=klamra łukowa	!	!	!	!	!	!	!	!	!	!	!
8F#\L	.	.	24a\LL	.	24a\LL	.	1ryy	.	.	.	1ryy	.	1ryy	1ryy	1ryy	.
.	.	.	24b\	.	24b\	.	.	.	.	.	.	.	.	.	.	.
.	.	.	24cc#\JJ	.	24cc#\JJ	.	.	.	.	.	.	.	.	.	.	.
!	!	!	!LO:TUP:a:problem=klamra łukowa	!	!LO:TUP:a:problem=klamra łukowa	!	!	!	!	!	!	!	!	!	!	!
8F#\	.	.	24dd\LL	.	24dd\LL	.	.	.	.	.	.	.	.	.	.	.
.	.	.	24ee\	.	24ee\	.	.	.	.	.	.	.	.	.	.	.
.	.	.	24ff#\JJ	.	24ff#\JJ	.	.	.	.	.	.	.	.	.	.	.
!	!	!	!LO:TUP:a:problem=klamra łukowa	!	!LO:TUP:a:problem=klamra łukowa	!	!	!	!	!	!	!	!	!	!	!
8G#\	.	.	24ee\LL	.	24ee\LL	.	.	.	.	.	.	.	.	.	.	.
.	.	.	24dd\	.	24dd\	.	.	.	.	.	.	.	.	.	.	.
.	.	.	24cc#\JJ	.	24cc#\JJ	.	.	.	.	.	.	.	.	.	.	.
!	!	!	!LO:TUP:a:problem=klamra łukowa	!	!	!	!	!	!	!	!	!	!	!	!	!
8G#\J	.	.	24b\LL	.	24b\LL	.	.	.	.	.	.	.	.	.	.	.
.	.	.	24cc#\	.	24cc#\	.	.	.	.	.	.	.	.	.	.	.
.	.	.	24dd\JJ	.	24dd\JJ	.	.	.	.	.	.	.	.	.	.	.
4A\	.	.	8cc#\	.	8cc#\	.	.	.	.	.	.	.	.	.	.	.
.	.	.	(32aa\KLL	.	(32ccc#\KLL	.	.	.	.	.	.	.	.	.	.	.
*	*	*	*	*	*custos:ee	*	*	*	*	*	*	*	*	*	*	*
.	.	.	16.ee\JJ)	.	16.aa\JJ)	.	.	.	.	.	.	.	.	.	.	.
!	!	!	!	!	!LO:LB:g=original	!	!	!	!	!	!	!	!	!	!	!
8r	.	.	(32cc#\KLL	.	(32ee\KLL	.	.	.	.	.	.	.	.	.	.	.
.	.	.	16.a\JJ)	.	16.cc#\JJ)	.	.	.	.	.	.	.	.	.	.	.
8A\	.	.	24e/LL|	.	24a\LL|	.	.	.	.	.	.	.	.	.	.	.
.	.	.	24a/|	.	24cc#\|	.	.	.	.	.	.	.	.	.	.	.
.	.	.	24cc#/JJ|	.	24ee\JJ|	.	.	.	.	.	.	.	.	.	.	.
=7	=7	=7	=7	=7	=7	=7	=7	=7	=7	=7	=7	=7	=7	=7	=7	=7
.	.	.	.	.	(<8qqee/	.	.	.	.	.	.	.	.	.	.	.
4e\	.	.	8b\	.	8dd\)	.	1ryy	.	.	.	1ryy	.	1ryy	1ryy	1ryy	.
.	.	.	(32ee\KLL	.	(32bb\KLL	.	.	.	.	.	.	.	.	.	.	.
.	.	.	16.b\JJ)	.	16.gg#\JJ)	.	.	.	.	.	.	.	.	.	.	.
8r	.	.	32b/KLL	.	(32dd\KLL	.	.	.	.	.	.	.	.	.	.	.
.	.	.	16.g#/JJ	.	16.b\JJ)	.	.	.	.	.	.	.	.	.	.	.
8E\	.	.	24e/LL|	.	24g#\LL|	.	.	.	.	.	.	.	.	.	.	.
.	.	.	24g#/|	.	24b\|	.	.	.	.	.	.	.	.	.	.	.
*	*	*	*custos:cc	*	*	*	*	*	*	*	*	*	*	*	*	*
!	!	!	!LO:TX:t=P:problem=wszystkie custos użyte jako łamanie pięciolinii	!	!	!	!	!	!	!	!	!	!	!	!	!
.	.	.	24b/JJ|	.	24dd\JJ|	.	.	.	.	.	.	.	.	.	.	.
!	!	!	!LO:LB:g=original	!	!	!	!	!	!	!	!	!	!	!	!	!
4A\	.	.	8a/	p	8cc#\	.	.	.	.	.	.	.	.	.	.	.
.	.	.	(32aa\KLL	.	(32ccc#\KLL	.	.	.	.	.	.	.	.	.	.	.
.	.	.	16.ee\JJ)	.	16.aa\JJ)	.	.	.	.	.	.	.	.	.	.	.
8r	.	.	(32cc#\KLL	.	(32ee\KLL	.	.	.	.	.	.	.	.	.	.	.
.	.	.	16.a\JJ)	.	16.cc#\JJ)	.	.	.	.	.	.	.	.	.	.	.
8AA/	.	.	24e/LL|	.	24a\LL|	.	.	.	.	.	.	.	.	.	.	.
.	.	.	24a/|	.	24cc#\|	.	.	.	.	.	.	.	.	.	.	.
.	.	.	24cc#/JJ|	.	24ee\JJ|	.	.	.	.	.	.	.	.	.	.	.
!LO:LB:g=original	!	!	!	!	!	!	!	!	!	!	!	!	!	!	!	!
=8	=8	=8	=8	=8	=8	=8	=8	=8	=8	=8	=8	=8	=8	=8	=8	=8
4E\	.	.	8b\	.	8dd\	.	1ryy	.	.	.	1ryy	.	1ryy	1ryy	1ryy	.
.	.	.	(32dd\KLL	.	(32bb\KLL	.	.	.	.	.	.	.	.	.	.	.
.	.	.	16.b\JJ)	.	16.gg#\JJ)	.	.	.	.	.	.	.	.	.	.	.
8r	.	.	(32b/KLL	.	(32dd\KLL	.	.	.	.	.	.	.	.	.	.	.
.	.	.	16.g#/JJ)	.	16.b\JJ)	.	.	.	.	.	.	.	.	.	.	.
8E\	.	.	24e/LL|	.	24g#\LL|	.	.	.	.	.	.	.	.	.	.	.
.	.	.	24g#/|	.	24b\|	.	.	.	.	.	.	.	.	.	.	.
.	.	.	24b/JJ|	.	24dd\JJ|	.	.	.	.	.	.	.	.	.	.	.
8AA/L	.	.	(32cc#\KLL	.	16cc#\KL	.	.	.	.	.	.	.	.	.	.	.
.	.	.	16.aa\JJ)	.	.	.	.	.	.	.	.	.	.	.	.	.
.	.	.	.	.	8aa\	.	.	.	.	.	.	.	.	.	.	.
8BB/	.	.	(32gg#\KLL	.	.	.	.	.	.	.	.	.	.	.	.	.
.	.	.	16.ff#\JJ)	.	.	.	.	.	.	.	.	.	.	.	.	.
.	.	.	.	.	(32gg#\LL	.	.	.	.	.	.	.	.	.	.	.
.	.	.	.	.	32ff#\JJJ)	.	.	.	.	.	.	.	.	.	.	.
8C#/	.	.	(32ee\KLL	.	(32ee\KLL	.	.	.	.	.	.	.	.	.	.	.
.	.	.	16.a\JJ)	.	16.a\JJ)	.	.	.	.	.	.	.	.	.	.	.
8D#X/J	.	.	(32ff#\KLL	.	(32ff#\KLL	.	.	.	.	.	.	.	.	.	.	.
.	.	.	16.a\JJ)	.	16.a\JJ)	.	.	.	.	.	.	.	.	.	.	.
!	!	!	!	!	!LO:LB:g=original	!	!	!	!	!	!	!	!	!	!	!
=9	=9	=9	=9	=9	=9	=9	=9	=9	=9	=9	=9	=9	=9	=9	=9	=9
4E\	.	.	4e/	.	4e/	.	1ryy	.	0r	.	1ryy	.	1ryy	1ryy	1ryy	.
4EE/	.	.	4bM/	.	4bM/	.	.	.	.	.	.	.	.	.	.	.
!	!	!LO:DY:a	!	!	!	!	!	!	!	!	!	!	!	!	!	!
8AA/L	.	p	(32cc#\KLL	.	16cc#\KL	.	.	.	.	.	.	.	.	.	.	.
.	.	.	16.aa\JJ)	.	.	.	.	.	.	.	.	.	.	.	.	.
.	.	.	.	.	8aa\	.	.	.	.	.	.	.	.	.	.	.
8BB/	.	.	(32gg#\KLL	.	.	.	.	.	.	.	.	.	.	.	.	.
.	.	.	16.ff#\JJ)	.	.	.	.	.	.	.	.	.	.	.	.	.
.	.	.	.	.	(32gg#\LL	.	.	.	.	.	.	.	.	.	.	.
.	.	.	.	.	32ff#\JJJ)	.	.	.	.	.	.	.	.	.	.	.
8C#/	.	.	(32ee\KLL	.	(32ee\KLL	.	.	.	.	.	.	.	.	.	.	.
.	.	.	16.a\JJ)	.	16.a\JJ)	.	.	.	.	.	.	.	.	.	.	.
8D#X/J	.	.	(32ff#\KLL	.	(32ff#\KLL	.	.	.	.	.	.	.	.	.	.	.
.	.	.	16.a\JJ)	.	16.a\JJ)	.	.	.	.	.	.	.	.	.	.	.
=10	=10	=10	=10	=10	=10	=10	=10	=10	=10	=10	=10	=10	=10	=10	=10	=10
!	!	!LO:DY:a	!LO:N:vis=8.	!	!LO:N:vis=8.	!	!	!	!	!	!	!	!	!	!	!
4E\	.	f	8eM/L	f	8e/L	.	1ryy	.	.	.	1ryy	.	1ryy	1ryy	1ryy	.
.	.	.	(32f#/LL	.	(32f#/LL	.	.	.	.	.	.	.	.	.	.	.
.	.	.	32g#/	.	32g#/	.	.	.	.	.	.	.	.	.	.	.
.	.	.	32a/	.	32a/	.	.	.	.	.	.	.	.	.	.	.
.	.	.	32b/JJJ)	.	32b/JJJ)	.	.	.	.	.	.	.	.	.	.	.
*	*	*	*custos:dd	*	*	*	*	*	*	*	*	*	*	*	*	*
4EE/	.	.	4bM/	.	4bM/	.	.	.	.	.	.	.	.	.	.	.
!	!	!	!LO:LB:g=original	!	!	!	!	!	!	!	!	!	!	!	!	!
4AA/	.	.	8a/L	.	8a/L	.	.	.	.	.	.	.	.	.	.	.
.	.	.	8e/J	.	8e/J	.	.	.	.	.	.	.	.	.	.	.
!LO:TX:t=P:problem=kreska taktowa pojedyncza	!	!	!LO:TX:t=P:problem=kreska taktowa pojedyncza	!	!	!	!	!	!	!	!	!	!	!	!	!
4r	.	.	4A/	.	4A/	.	.	.	.	.	.	.	.	.	.	.
=11||	=11||	=11||	=11||	=11||	=11||	=11||	=11||	=11||	=11||	=11||	=11||	=11||	=11||	=11||	=11||	=11||
!	!	!LO:DY:a	!	!LO:DY:a	!	!	!	!	!	!	!	!	!	!	!	!
8AA/L	.	p	8c#/L	p	[4a/	.	1ryy	.	[4A\	Be-	1ryy	.	1ryy	1ryy	1ryy	.
8AA/	.	.	8c#/	.	.	.	.	.	.	.	.	.	.	.	.	.
*	*	*	*	*	*	*	*	*	*Xtuplet	*	*	*	*	*	*	*
!	!	!	!	!	!LO:TUP:a:problem=klamra łukowa	!	!	!	!	!	!	!	!	!	!	!
8AA/	.	.	8c#/	.	24a\LL]	.	.	.	24A\LL]	.	.	.	.	.	.	.
.	.	.	.	.	24ee\	.	.	.	24e\	.	.	.	.	.	.	.
.	.	.	.	.	24dd\JJ	.	.	.	24d\JJ	.	.	.	.	.	.	.
!	!	!	!	!	!LO:TUP:a:problem=klamra łukowa	!	!	!	!LO:TUP:a:problem=klamra łukowa	!	!	!	!	!	!	!
8AA/J	.	.	8c#/J	.	24cc#\LL	.	.	.	24c#\LL	-ne-	.	.	.	.	.	.
.	.	.	.	.	24b\	.	.	.	24B\	.	.	.	.	.	.	.
.	.	.	.	.	24a\JJ	.	.	.	24A\JJ	.	.	.	.	.	.	.
8.AA/L	4 2	.	8.dM/L	.	(16b/LL	.	.	.	(16B\LL	-di-	.	.	.	.	.	.
.	.	.	.	.	16g#/J	.	.	.	16G#\JJ)	.	.	.	.	.	.	.
.	.	.	.	.	8a/J)	.	.	.	8A\	-ctus	.	.	.	.	.	.
32AA/LL	.	.	32c#/LL	.	.	.	.	.	.	.	.	.	.	.	.	.
32BB/JJJ	.	.	32d/JJJ	.	.	.	.	.	.	.	.	.	.	.	.	.
!	!	!	!LO:TX:t=P:problem=mixed beam	!	!	!	!	!	!	!	!	!	!	!	!	!
8C#/L	.	.	8e/L	.	8r	.	.	.	8r	.	.	.	.	.	.	.
8AA/J	.	.	8cc#\J	.	8aa\	.	.	.	8c#\	qui	.	.	.	.	.	.
=12	=12	=12	=12	=12	=12	=12	=12	=12	=12	=12	=12	=12	=12	=12	=12	=12
.	.	.	(8qqcc#/	.	(<8qqaa/	.	.	.	(<8qqc#/	.	.	.	.	.	.	.
4E\	.	.	8.b/L)	.	8.gg#\L)	.	1ryy	.	(8.B\L)	Ve-	1ryy	.	1ryy	1ryy	1ryy	.
.	.	.	16g#/K	.	16b\Jk	.	.	.	32c#\LL	.	.	.	.	.	.	.
.	.	.	.	.	.	.	.	.	32d\JJJ)	.	.	.	.	.	.	.
8r	.	.	8a/	.	8cc#\L	.	.	.	8E/	-nit	.	.	.	.	.	.
8E\	.	.	8b/J	.	8dd\J	.	.	.	8e\	in	.	.	.	.	.	.
.	.	.	.	.	.	.	.	.	(<8qqd/	.	.	.	.	.	.	.
!LO:TX:t=P:problem=mixed beam	!	!	!	!	!	!	!	!	!	!	!	!	!	!	!	!
8A\L	.	.	16a/LL	.	16.cc#\LL	.	.	.	16.c#\)	no-	.	.	.	.	.	.
.	.	.	16b/J	.	.	.	.	.	.	.	.	.	.	.	.	.
.	.	.	.	.	32dd\JK	.	.	.	32d\	-mi-	.	.	.	.	.	.
8AA/	.	.	8cc#/J	.	8ee\J	.	.	.	8e\	-ne	.	.	.	.	.	.
*	*	*	*	*	*custos:cc	*	*	*	*	*	*	*	*	*	*	*
!	!	!	!	!	!LO:TX:a:t=P:problem=wszystkie custos użyte jako łamanie pięciolinii	!	!	!	!	!	!	!	!	!	!	!
8C#/	.	.	8r	.	8r	.	.	.	8r	.	.	.	.	.	.	.
!	!	!	!	!	!LO:LB:g=original	!	!	!	!	!	!	!	!	!	!	!
8AA/J	.	.	8cc#\	.	8aa\	.	.	.	8c#\	in	.	.	.	.	.	.
!LO:LB:g=original	!	!	!	!	!	!	!	!	!LO:LB:g=original	!	!	!	!	!	!	!
=13	=13	=13	=13	=13	=13	=13	=13	=13	=13	=13	=13	=13	=13	=13	=13	=13
.	.	.	.	.	.	.	.	.	(<8qqc#/	.	.	.	.	.	.	.
4E\	.	.	(16cc#\LL	.	(16aa\LL	.	1ryy	.	4.B\)	no-	1ryy	.	1ryy	1ryy	1ryy	.
.	.	.	16b\)	.	16gg#\)	.	.	.	.	.	.	.	.	.	.	.
.	.	.	16dd\|	.	16bb\|	.	.	.	.	.	.	.	.	.	.	.
.	.	.	16g#\JJ|	.	16b\JJ|	.	.	.	.	.	.	.	.	.	.	.
4EE/	.	.	(16g#/KL	.	16b\KL	.	.	.	.	.	.	.	.	.	.	.
.	.	.	8a/	.	8cc#\	.	.	.	.	.	.	.	.	.	.	.
.	.	.	.	.	.	.	.	.	16c#\	-mi-	.	.	.	.	.	.
.	.	.	16b/Jk)	.	16dd\Jk	.	.	.	16d\	-ne	.	.	.	.	.	.
!LO:TX:t=P:problem=mixed beam	!	!	!	!	!	!	!	!	!	!	!	!	!	!	!	!
8AA/L	.	.	(32a/LLL	.	(32cc#\LLL	.	.	.	(32c#\LLL	Do-	.	.	.	.	.	.
.	.	.	32b/	.	32dd\	.	.	.	32d\	.	.	.	.	.	.	.
.	.	.	32cc#/	.	32ee\	.	.	.	32e\	.	.	.	.	.	.	.
.	.	.	32dd/JJJ)	.	32ff#\JJJ)	.	.	.	32f#\JJJ)	.	.	.	.	.	.	.
8A\	.	.	4cc#\	.	4ee\	.	.	.	8e\	.	.	.	.	.	.	.
8c#\	.	.	.	.	.	.	.	.	24e\LL	.	.	.	.	.	.	.
.	.	.	.	.	.	.	.	.	24f#\	.	.	.	.	.	.	.
.	.	.	.	.	.	.	.	.	24g#\JJ	.	.	.	.	.	.	.
8A\J	.	.	8ee\	.	8ccc#\	.	.	.	24a\LL	.	.	.	.	.	.	.
.	.	.	.	.	.	.	.	.	24b\	.	.	.	.	.	.	.
.	.	.	.	.	.	.	.	.	24cc#\JJ	.	.	.	.	.	.	.
=14	=14	=14	=14	=14	=14	=14	=14	=14	=14	=14	=14	=14	=14	=14	=14	=14
8r	.	.	(32g#/LLL	.	(32b\LLL	.	1ryy	.	(32B\LLL	.	1ryy	.	1ryy	1ryy	1ryy	.
.	.	.	32a/	.	32cc#\	.	.	.	32c#\	.	.	.	.	.	.	.
.	.	.	32b/	.	32dd\	.	.	.	32d\	.	.	.	.	.	.	.
.	.	.	32cc#/JJJ)	.	32ee\JJJ)	.	.	.	32e\JJ	.	.	.	.	.	.	.
.	.	.	.	.	.	.	.	.	(<16qqe/	.	.	.	.	.	.	.
8E\L	.	.	4b\	.	4dd\	.	.	.	8d\J))	.	.	.	.	.	.	.
8G#\	.	.	.	.	.	.	.	.	24d\LL	.	.	.	.	.	.	.
.	.	.	.	.	.	.	.	.	24e\	.	.	.	.	.	.	.
.	.	.	.	.	.	.	.	.	24f#\JJ	.	.	.	.	.	.	.
8E\J	.	.	8dd\	.	8bb\	.	.	.	24g#\LL	.	.	.	.	.	.	.
.	.	.	.	.	.	.	.	.	24a\	.	.	.	.	.	.	.
.	.	.	.	.	.	.	.	.	24b\JJ	.	.	.	.	.	.	.
!	!	!	!	!	!	!	!	!	!LO:N:vis=8	!	!	!	!	!	!	!
8AA/L	.	.	8cc#\L	.	16cc#\LL|	.	.	.	16c#\LL	.	.	.	.	.	.	.
!	!	!	!	!	!	!	!	!	!LO:N:vis=8	!	!	!	!	!	!	!
.	.	.	.	.	(16aa\	.	.	.	16d\JJ	.	.	.	.	.	.	.
8BB/	.	.	8dd\J	.	16gg#\	.	.	.	8.eM\L	.	.	.	.	.	.	.
.	.	.	.	.	16ff#\JJ)	.	.	.	.	.	.	.	.	.	.	.
8C#/	.	.	8eeM\L	.	8ee\L	.	.	.	.	.	.	.	.	.	.	.
.	.	.	.	.	.	.	.	.	(32d\LL	.	.	.	.	.	.	.
.	.	.	.	.	.	.	.	.	32e\JJJ)	.	.	.	.	.	.	.
8D/J	.	.	16ff#\L	.	16ff#\L	.	.	.	16f#\LL	.	.	.	.	.	.	.
.	.	.	16a\JJ	.	16a\JJ	.	.	.	16A\JJ	.	.	.	.	.	.	.
!	!	!	!LO:LB:g=original	!	!	!	!	!	!	!	!	!	!	!	!	!
=15	=15	=15	=15	=15	=15	=15	=15	=15	=15	=15	=15	=15	=15	=15	=15	=15
.	.	.	.	.	.	.	.	.	(16qqA/	.	.	.	.	.	.	.
8E\L	.	.	8g#/L	.	16.g#/LL	.	1ryy	.	16G#/)	.	1ryy	.	1ryy	1ryy	1ryy	.
.	.	.	.	.	.	.	.	.	16F#/	-mi-	.	.	.	.	.	.
.	.	.	.	.	32f#/JK	.	.	.	.	.	.	.	.	.	.	.
8E\	.	.	8g#/	.	8e/J	.	.	.	8E/	-ni	.	.	.	.	.	.
8G#\	.	.	8b/	.	4r	.	.	.	8r	.	.	.	.	.	.	.
8E\J	.	.	8g#/J	.	.	.	.	.	8e\	Qui	.	.	.	.	.	.
!	!	!	!	!	!	!	!	!	!LO:PB:g=original	!	!	!	!	!	!	!
8r	.	.	8r	.	8r	.	.	.	(16e\LL	ve-	.	.	.	.	.	.
.	.	.	.	.	.	.	.	.	16d\JJ)	.	.	.	.	.	.	.
8G#\L	6	.	8b\L	.	8ee\L	.	.	.	16c#\	-nit	.	.	.	.	.	.
.	.	.	.	.	.	.	.	.	16B\	in	.	.	.	.	.	.
8G#\	.	.	8b\	.	8ee\	.	.	.	16A\LL	no-	.	.	.	.	.	.
.	.	.	.	.	.	.	.	.	16G#\JJ	.	.	.	.	.	.	.
8G#\J	.	.	8b\J	.	8ee\J	.	.	.	16F#/	-mi-	.	.	.	.	.	.
.	.	.	.	.	.	.	.	.	16E/	-ne	.	.	.	.	.	.
=16	=16	=16	=16	=16	=16	=16	=16	=16	=16	=16	=16	=16	=16	=16	=16	=16
8r	.	.	8r	.	8r	.	1ryy	.	[4c#\	Do-	1ryy	.	1ryy	1ryy	1ryy	.
8A\L	.	.	8cc#\L	.	8ee\L	.	.	.	.	.	.	.	.	.	.	.
8A\	.	.	8cc#\	.	8ee\	.	.	.	24c#\LL]	.	.	.	.	.	.	.
.	.	.	.	.	.	.	.	.	24e\	.	.	.	.	.	.	.
.	.	.	.	.	.	.	.	.	24d#X\JJ	.	.	.	.	.	.	.
!	!	!	!	!	!	!	!	!	!LO:TUP:a:problem=klamra łukowa	!	!	!	!	!	!	!
8A\J	.	.	8cc#\J	.	8ee\J	.	.	.	24c#\LL	.	.	.	.	.	.	.
.	.	.	.	.	.	.	.	.	24d#\	.	.	.	.	.	.	.
.	.	.	.	.	.	.	.	.	24e\JJ	.	.	.	.	.	.	.
*	*	*	*	*	*custos:dd	*	*	*	*	*	*	*	*	*	*	*
8r	.	.	8r	.	8r	.	.	.	8.f#\L	.	.	.	.	.	.	.
!	!	!	!	!	!LO:LB:g=original	!	!	!	!	!	!	!	!	!	!	!
8D#X\L	2	.	8cc#\L	.	8ff#\L	.	.	.	.	.	.	.	.	.	.	.
.	.	.	.	.	.	.	.	.	(32a\LL	.	.	.	.	.	.	.
.	.	.	.	.	.	.	.	.	32g#\JJJ)	.	.	.	.	.	.	.
8D#\	.	.	8cc#\	.	8ff#\	.	.	.	32f#\KLL	.	.	.	.	.	.	.
.	.	.	.	.	.	.	.	.	16.e\	.	.	.	.	.	.	.
!	!	!	!LO:TX:b:i:t=Verte Cito	!	!	!	!	!	!LO:TX:a:t=P:problem=# above	!	!	!	!	!	!	!
8D#\J	.	.	8cc#\J	.	8ff#\J	.	.	.	32d#X\K	.	.	.	.	.	.	.
.	.	.	.	.	.	.	.	.	16.c#\JJ	.	.	.	.	.	.	.
!	!	!	!LO:PB:g=original	!	!	!	!	!	!	!	!	!	!	!	!	!
=17	=17	=17	=17	=17	=17	=17	=17	=17	=17	=17	=17	=17	=17	=17	=17	=17
8r	.	.	8r	.	8r	.	1ryy	.	[4B\	.	1ryy	.	1ryy	1ryy	1ryy	.
8G#\L	3	.	8b\L	.	8ff#\L	.	.	.	.	.	.	.	.	.	.	.
8G#\	.	.	8b\	.	8ff#\	.	.	.	24B\LL]	.	.	.	.	.	.	.
.	.	.	.	.	.	.	.	.	24d#X\	.	.	.	.	.	.	.
.	.	.	.	.	.	.	.	.	24c#\JJ	.	.	.	.	.	.	.
!	!	!	!	!	!	!	!	!	!LO:TUP:a:problem=klamra łukowa	!	!	!	!	!	!	!
8G#\J	.	.	8b\J	.	8ff#\J	.	.	.	24B\LL	.	.	.	.	.	.	.
.	.	.	.	.	.	.	.	.	24c#\	.	.	.	.	.	.	.
.	.	.	.	.	.	.	.	.	24d#\JJ	.	.	.	.	.	.	.
8r	.	.	8r	.	8r	.	.	.	8.e\L	.	.	.	.	.	.	.
8C#/L	7	.	8b\L	.	8ee\L	.	.	.	.	.	.	.	.	.	.	.
.	.	.	.	.	.	.	.	.	(32g#\LL	.	.	.	.	.	.	.
*	*	*	*	*	*	*	*	*	*custos:e	*	*	*	*	*	*	*
.	.	.	.	.	.	.	.	.	32f#\JJJ)	.	.	.	.	.	.	.
!	!	!	!	!	!	!	!	!	!LO:LB:g=original	!	!	!	!	!	!	!
8C#/	.	.	8b\	.	8ee\	.	.	.	(32e\KLL	.	.	.	.	.	.	.
.	.	.	.	.	.	.	.	.	16.d#X\	.	.	.	.	.	.	.
8C#/J	.	.	8b\J	.	8ee\J	.	.	.	32c#\K	.	.	.	.	.	.	.
.	.	.	.	.	.	.	.	.	16.B\JJ)	.	.	.	.	.	.	.
!LO:LB:g=original	!	!	!	!	!	!	!	!	!	!	!	!	!	!	!	!
=18	=18	=18	=18	=18	=18	=18	=18	=18	=18	=18	=18	=18	=18	=18	=18	=18
.	.	.	.	.	.	.	.	.	(<8qqB/	.	.	.	.	.	.	.
!LO:TX:t=P:problem=mixed beam	!	!	!	!	!	!	!	!	!	!	!	!	!	!	!	!
8F#\L	6\	.	8a/	.	8dd#X\	.	4%5ryy	.	8.AM\)	.	4%5ryy	.	4%5ryy	4%5ryy	4%5ryy	.
8BB/	7_	.	(32a/KLL	.	(32ff#\KLL	.	.	.	.	.	.	.	.	.	.	.
.	.	.	16.f#/JJ)	.	16.dd#\JJ)	.	.	.	.	.	.	.	.	.	.	.
.	.	.	.	.	.	.	.	.	16A\	-mi-	.	.	.	.	.	.
8D#X/	.	.	(32f#/KLL	.	(32a/KLL	.	.	.	8G#/	-ni	.	.	.	.	.	.
.	.	.	16.B/JJ)	.	16.f#/JJ)	.	.	.	.	.	.	.	.	.	.	.
!LO:TX:t=P:problem=kreska taktowa pojedyncza	!	!	!	!	!	!	!	!	!	!	!	!	!	!	!	!
8BB/J	.	.	24B/LL|	.	24B/LL	.	.	.	8B/	in	.	.	.	.	.	.
.	.	.	24d#X/|	.	24f#/	.	.	.	.	.	.	.	.	.	.	.
.	.	.	24f#/JJ|	.	24a/JJ	.	.	.	.	.	.	.	.	.	.	.
!LO:TX:t=P:problem=zbędny fragment w vl 1	!	!	!LO:TX:t=P:problem=zbędny fragment w vl 1	!	!LO:TX:t=P:problem=zbędny fragment na 3 miarę	!	!	!	!LO:TX:t=P:problem=zbędny fragment w vl 1	!	!	!	!	!	!	!
4ryy	x	.	4ryy	.	8g#/L	.	.	.	4ryy	.	.	.	.	.	.	.
.	.	.	.	.	8b/J	.	.	.	.	.	.	.	.	.	.	.
8E\L	.	.	8e/L	.	8.cc#M\L	.	.	.	8.c#\L	no-	.	.	.	.	.	.
8G#\	.	.	8e/	.	.	.	.	.	.	.	.	.	.	.	.	.
.	.	.	.	.	(32dd#\LL	.	.	.	(32d#X\LL	.	.	.	.	.	.	.
.	.	.	.	.	32ee\JJJ)	.	.	.	32e\JJJ)	.	.	.	.	.	.	.
8A\	.	.	8e/	.	8.dd#m\L	.	.	.	8.d#\L	.	.	.	.	.	.	.
8A\J	4 2	.	8f#/J	.	.	.	.	.	.	.	.	.	.	.	.	.
.	.	.	.	.	(32ee\LL	.	.	.	(32e\LL	.	.	.	.	.	.	.
.	.	.	.	.	32ff#\JJJ)	.	.	.	32f#\JJJ)	.	.	.	.	.	.	.
=19	=19	=19	=19	=19	=19	=19	=19	=19	=19	=19	=19	=19	=19	=19	=19	=19
8G#\L	.	.	8g#/L	.	8.eeM\L	.	1ryy	.	8.e\L	.	1ryy	.	1ryy	1ryy	1ryy	.
8E\	.	.	8b/	.	.	.	.	.	.	.	.	.	.	.	.	.
.	.	.	.	.	(32ff#\LL	.	.	.	(32f#\LL	.	.	.	.	.	.	.
.	.	.	.	.	32gg#\JJJ)	.	.	.	32g#\JJJ)	.	.	.	.	.	.	.
8D#X\	.	.	8b/	.	8.ff#M\L	.	.	.	8.f#\L	.	.	.	.	.	.	.
!LO:TX:t=P:problem=kreska taktowa pojedyncza	!	!	!	!	!	!	!	!	!	!	!	!	!	!	!	!
8BB\J	.	.	8dd#X/J	.	.	.	.	.	.	.	.	.	.	.	.	.
.	.	.	.	.	(32gg#\LL	.	.	.	(32g#\LL	.	.	.	.	.	.	.
.	.	.	.	.	32aa\JJJ)	.	.	.	32a\JJJ)	.	.	.	.	.	.	.
8E\L	.	.	(8ee\L	.	(32gg#\LLL	.	.	.	8g#\L	.	.	.	.	.	.	.
.	.	.	.	.	32ff#\JJ	.	.	.	.	.	.	.	.	.	.	.
.	.	.	.	.	8.ee\J)	.	.	.	.	.	.	.	.	.	.	.
8F#\	.	.	32dd#X\KL	.	.	.	.	.	(32f#\KL	.	.	.	.	.	.	.
.	.	.	16.cc#\JJ)	.	.	.	.	.	16.e\JJ)	.	.	.	.	.	.	.
8G#\	.	.	32b/KLL	.	(32dd#X\KLL	.	.	.	(32d#X\KLL	.	.	.	.	.	.	.
.	.	.	16.a/JJ	.	16.cc#\JJ)	.	.	.	16.c#\JJ)	.	.	.	.	.	.	.
8A\J	.	.	32g#/KLL	.	(32b\KLL	.	.	.	16B\	-mi-	.	.	.	.	.	.
.	.	.	16.f#/JJ	.	16.a\JJ)	.	.	.	.	.	.	.	.	.	.	.
.	.	.	.	.	.	.	.	.	16A\	-ne	.	.	.	.	.	.
!	!	!	!	!	!LO:LB:g=original	!	!	!	!LO:LB:g=original	!	!	!	!	!	!	!
=20	=20	=20	=20	=20	=20	=20	=20	=20	=20	=20	=20	=20	=20	=20	=20	=20
!LO:TX:t=P:problem=mixed beam	!	!	!	!	!	!	!	!	!	!	!	!	!	!	!	!
8B\L	6 4	.	4e/	.	4g#/	.	1ryy	.	4G#/	Do-	1ryy	.	1ryy	1ryy	1ryy	.
8B\	.	.	.	.	.	.	.	.	.	.	.	.	.	.	.	.
8BB/	#	.	4d#Xm/	.	4f#M/	.	.	.	8.F#/	.	.	.	.	.	.	.
8BB/J	.	.	.	.	.	.	.	.	.	.	.	.	.	.	.	.
.	.	.	.	.	.	.	.	.	16E/	-mi-	.	.	.	.	.	.
4E\	.	.	8e/	.	8g#/	.	.	.	4E/	-ni	.	.	.	.	.	.
.	.	.	(32ee\KLL	.	(32gg#\KLL	.	.	.	.	.	.	.	.	.	.	.
.	.	.	16.b\JJ)	.	16.ee\JJ)	.	.	.	.	.	.	.	.	.	.	.
8r	.	.	(32g#/KLL	.	(32b/KLL	.	.	.	4r	.	.	.	.	.	.	.
.	.	.	16.e/JJ)	.	16.g#/JJ)	.	.	.	.	.	.	.	.	.	.	.
8E\	.	.	24B/LL|	.	24e/LL|	.	.	.	.	.	.	.	.	.	.	.
.	.	.	24e/|	.	24g#/|	.	.	.	.	.	.	.	.	.	.	.
.	.	.	24g#/JJ|	.	24b/JJ|	.	.	.	.	.	.	.	.	.	.	.
!	!	!	!LO:LB:g=original	!	!	!	!	!	!	!	!	!	!	!	!	!
=21	=21	=21	=21	=21	=21	=21	=21	=21	=21	=21	=21	=21	=21	=21	=21	=21
.	.	.	8qqg#/	.	(8qqb/	.	.	.	.	.	.	.	.	.	.	.
!	!	!	!	!	!	!	!	!	!LO:TX:a:t=2	!	!	!	!	!	!	!
4B\	#	.	8f#/	.	8a/)	.	1ryy	.	0r	.	1ryy	.	1ryy	1ryy	1ryy	.
.	.	.	(32a/KLL	.	(32ff#\KLL	.	.	.	.	.	.	.	.	.	.	.
!	!	!	!	!	!LO:SIC:v:s=16.dd#\JJ)	!	!	!	!	!	!	!	!	!	!	!
.	.	.	16.f#/JJ)	.	16.dd\JJ)	.	.	.	.	.	.	.	.	.	.	.
8r	.	.	(32f#/KLL	.	(32a/KLL	.	.	.	.	.	.	.	.	.	.	.
.	.	.	16.d#X/JJ)	.	16.f#/JJ)	.	.	.	.	.	.	.	.	.	.	.
8BB/	.	.	24d#/LL	.	24B/LL|	.	.	.	.	.	.	.	.	.	.	.
.	.	.	24B/	.	24f#/|	.	.	.	.	.	.	.	.	.	.	.
.	.	.	24f#/JJ	.	24a/JJ|	.	.	.	.	.	.	.	.	.	.	.
!	!	!	!LO:TX:t=P:problem=mixed beam	!	!	!	!	!	!	!	!	!	!	!	!	!
8E\L	.	.	(32e/KLL	.	(32g#/KLL	.	.	.	.	.	.	.	.	.	.	.
.	.	.	16.ee\JJ)	.	16.ee/JJ)	.	.	.	.	.	.	.	.	.	.	.
8F#\	6\	.	(32dd#X\KLL	.	(32dd#X\KLL	.	.	.	.	.	.	.	.	.	.	.
.	.	.	16.cc#\JJ)	.	16.cc#\JJ)	.	.	.	.	.	.	.	.	.	.	.
8G#\	6	.	32b/KLL	.	(32b/KLL	.	.	.	.	.	.	.	.	.	.	.
.	.	.	16.e/JJ	.	16.e/JJ)	.	.	.	.	.	.	.	.	.	.	.
8A\J	.	.	32cc#/KLL	.	(32cc#/KLL	.	.	.	.	.	.	.	.	.	.	.
.	.	.	16.e/JJ	.	16.e/JJ)	.	.	.	.	.	.	.	.	.	.	.
=22	=22	=22	=22	=22	=22	=22	=22	=22	=22	=22	=22	=22	=22	=22	=22	=22
4B\	6 4	.	4B/	.	4B/	.	1ryy	.	.	.	1ryy	.	1ryy	1ryy	1ryy	.
4BB/	#	.	4ff#M\	.	4ff#M\	.	.	.	.	.	.	.	.	.	.	.
8E\L	.	.	8ee\L	.	8ee\L	.	.	.	.	.	.	.	.	.	.	.
8BB\J	.	.	8b\J	.	8b\J	.	.	.	.	.	.	.	.	.	.	.
4EE/	.	.	4e/	.	4e/	.	.	.	.	.	.	.	.	.	.	.
!LO:LB:g=original	!	!	!	!	!	!	!	!	!	!	!	!	!	!	!	!
=23	=23	=23	=23	=23	=23	=23	=23	=23	=23	=23	=23	=23	=23	=23	=23	=23
!	!	!LO:DY:a	!	!LO:DY:a	!	!	!	!	!	!	!	!	!	!	!	!
8E\L	.	p	8G#/L	p	[4e/	.	1ryy	.	[4E/	Be-	1ryy	.	1ryy	1ryy	1ryy	.
8E\	.	.	8G#/	.	.	.	.	.	.	.	.	.	.	.	.	.
8E\	.	.	8G#/	.	24e/LL]	.	.	.	24E/LL]	.	.	.	.	.	.	.
.	.	.	.	.	24cc#/	.	.	.	24B/	.	.	.	.	.	.	.
.	.	.	.	.	24a/JJ	.	.	.	24A/JJ	.	.	.	.	.	.	.
!	!	!	!	!	!	!	!	!	!LO:TUP:a:problem=klamra łukowa	!	!	!	!	!	!	!
8E\J	.	.	8G#/J	.	24g#/LL	.	.	.	24G#/LL	-ne-	.	.	.	.	.	.
.	.	.	.	.	24f#/	.	.	.	24F#/	.	.	.	.	.	.	.
*	*	*	*	*	*custos:cc	*	*	*	*	*	*	*	*	*	*	*
.	.	.	.	.	24e/JJ	.	.	.	24E/JJ	.	.	.	.	.	.	.
!	!	!	!	!	!LO:LB:g=original	!	!	!	!	!	!	!	!	!	!	!
8E\L	# 4	.	8.AM/L	.	16f#/LL	.	.	.	16F#/LL	-di-	.	.	.	.	.	.
.	.	.	.	.	16d#X/J	.	.	.	16D/JJ	.	.	.	.	.	.	.
16.E\L	8	.	.	.	8e/J	.	.	.	8E/	-ctus	.	.	.	.	.	.
.	.	.	(32G#/LL	.	.	.	.	.	.	.	.	.	.	.	.	.
32F#\JJk	.	.	32A/JJJ)	.	.	.	.	.	.	.	.	.	.	.	.	.
8G#\L	.	.	8B/L	.	8r	.	.	.	8r	.	.	.	.	.	.	.
8E\J	.	.	8g#/J	.	8ee\	.	.	.	8e\	Qui	.	.	.	.	.	.
=24	=24	=24	=24	=24	=24	=24	=24	=24	=24	=24	=24	=24	=24	=24	=24	=24
!	!	!	!	!	!LO:TX:t=P:problem=mixed beam	!	!	!	!LO:TX:t=P:problem=mixed beam	!	!	!	!	!	!	!
.	.	.	8qqg#/	.	(8qqee/	.	.	.	(<8qqe/	.	.	.	.	.	.	.
4B\	#	.	8.f#/L	.	8.dd#X\L)	.	1ryy	.	8.d#X/L)	Ve-	1ryy	.	1ryy	1ryy	1ryy	.
!	!	!	!LO:SIC:v:s=16d#/K	!	!	!	!	!	!	!	!	!	!	!	!	!
.	.	.	16d/K	.	16f#/Jk	.	.	.	16F#\Jk	.	.	.	.	.	.	.
4BB/	.	.	8e/	.	8g#/L	.	.	.	8G#/	-nit	.	.	.	.	.	.
.	.	.	8f#/J	.	8a/J	.	.	.	8A/	in	.	.	.	.	.	.
.	.	.	.	.	.	.	.	.	(16qqA/	.	.	.	.	.	.	.
8E\L	.	.	16e/LL	.	16g#/LL	.	.	.	16G#/)	no-	.	.	.	.	.	.
.	.	.	16f#/J	.	16a/J	.	.	.	16A/	-mi-	.	.	.	.	.	.
8E\	.	.	8g#/J	.	8b/J	.	.	.	8B\	-ne	.	.	.	.	.	.
8G#\	.	.	8r	.	8r	.	.	.	8r	.	.	.	.	.	.	.
8E\J	.	.	8ee\	.	8gg#\	.	.	.	8e\	in	.	.	.	.	.	.
!	!	!	!LO:LB:g=original	!	!	!	!	!	!LO:LB:g=original	!	!	!	!	!	!	!
=25	=25	=25	=25	=25	=25	=25	=25	=25	=25	=25	=25	=25	=25	=25	=25	=25
!LO:TX:t=P:problem=mixed beam	!	!	!LO:TX:t=P:problem=mixed beam	!	!LO:TX:t=P:problem=mixed beam	!	!	!	!	!	!	!	!	!	!	!
8B\L	#	.	8dd#X\L	.	8ff#\L|	.	1ryy	.	24d#X\LL	no-	1ryy	.	1ryy	1ryy	1ryy	.
.	.	.	.	.	.	.	.	.	24f#\	.	.	.	.	.	.	.
.	.	.	.	.	.	.	.	.	24e\JJ	.	.	.	.	.	.	.
8B\	.	.	8dd#\	.	8ff#\|	.	.	.	24d#\LL	.	.	.	.	.	.	.
.	.	.	.	.	.	.	.	.	24c#\	.	.	.	.	.	.	.
.	.	.	.	.	.	.	.	.	24B\JJ	.	.	.	.	.	.	.
8B\	.	.	8dd#\	.	(8ff#\	.	.	.	16A/LL	.	.	.	.	.	.	.
.	.	.	.	.	.	.	.	.	16F#/JJ	.	.	.	.	.	.	.
!	!	!	!	!	!	!	!	!	!LO:SIC:s=16D#	!	!	!	!	!	!	!
8BB/J	.	.	8f#/J	.	8a/J)	.	.	.	16D/	-mi-	.	.	.	.	.	.
.	.	.	.	.	.	.	.	.	16A/	-ne	.	.	.	.	.	.
8E\L	.	.	8e/L	.	16.g#/LL	.	.	.	16.G#/	Do-	.	.	.	.	.	.
.	.	.	.	.	32f#/JK	.	.	.	32F#/	-mi-	.	.	.	.	.	.
16E\L	.	.	16e/L	.	8e/J	.	.	.	8E/	-ni	.	.	.	.	.	.
16F#\JJ	.	.	16f#/JJ	.	.	.	.	.	.	.	.	.	.	.	.	.
16E\LL	.	.	16e/LL	.	4r	.	.	.	4r	.	.	.	.	.	.	.
16Dn\	.	.	16dn/	.	.	.	.	.	.	.	.	.	.	.	.	.
16C#\	.	.	16c#/	.	.	.	.	.	.	.	.	.	.	.	.	.
16BB\JJ	.	.	16B/JJ	.	.	.	.	.	.	.	.	.	.	.	.	.
=26	=26	=26	=26	=26	=26	=26	=26	=26	=26	=26	=26	=26	=26	=26	=26	=26
!	!	!	!	!LO:DY:a	!	!	!	!	!	!	!	!	!	!	!	!
8AA/L	.	.	8c#/L	f	[>4a/	.	1ryy	.	[4A\	Be-	1ryy	.	1ryy	1ryy	1ryy	.
8AA/	.	.	8c#/	.	.	.	.	.	.	.	.	.	.	.	.	.
8AA/	.	.	8c#/	.	24a\LL]	.	.	.	24A\LL]	.	.	.	.	.	.	.
.	.	.	.	.	24ee\	.	.	.	24e\	.	.	.	.	.	.	.
.	.	.	.	.	24ddn\JJ	.	.	.	24d\JJ	.	.	.	.	.	.	.
!	!	!	!	!	!	!	!	!	!LO:TUP:a:problem=klamra łukowa	!	!	!	!	!	!	!
8AA/J	.	.	8c#/J	.	24cc#\LL	.	.	.	24c#\LL	-ne-	.	.	.	.	.	.
.	.	.	.	.	24b\	.	.	.	24B\	.	.	.	.	.	.	.
.	.	.	.	.	24a\JJ	.	.	.	24A\JJ	.	.	.	.	.	.	.
8AA/L	5 4	.	8.d/L	.	(16b/LL	.	.	.	16B\LL	-di-	.	.	.	.	.	.
.	.	.	.	.	16g#/J	.	.	.	16G#\JJ	.	.	.	.	.	.	.
16.AA/L	.	.	.	.	8a/J)	.	.	.	8A\	-ctus	.	.	.	.	.	.
.	.	.	32c#/LL	.	.	.	.	.	.	.	.	.	.	.	.	.
32BB/JJk	.	.	32d/JJJ	.	.	.	.	.	.	.	.	.	.	.	.	.
!	!	!	!LO:TX:t=P:problem=mixed beam	!	!	!	!	!	!	!	!	!	!	!	!	!
8C#/L	.	.	8e/L	.	8r	.	.	.	8r	.	.	.	.	.	.	.
8AA/J	.	.	8cc#\J	.	8aa\	.	.	.	8c#\	qui	.	.	.	.	.	.
!LO:LB:g=original	!	!	!	!	!	!	!	!	!	!	!	!	!	!	!	!
=27	=27	=27	=27	=27	=27	=27	=27	=27	=27	=27	=27	=27	=27	=27	=27	=27
.	.	.	8qqcc#/	.	(<8qqaa/	.	.	.	.	.	.	.	.	.	.	.
4E\	.	.	8.b\L	.	8.gg#\L)	.	1ryy	.	8.B\L	Ve-	1ryy	.	1ryy	1ryy	1ryy	.
.	.	.	16g#\K	.	16b\K	.	.	.	(32c#\LL	.	.	.	.	.	.	.
.	.	.	.	.	.	.	.	.	32dn\JJJ)	.	.	.	.	.	.	.
4EE/	.	.	8a\	.	8cc#\	.	.	.	8E/	-nit	.	.	.	.	.	.
*	*	*	*	*	*	*	*	*	*custos:c#	*	*	*	*	*	*	*
.	.	.	8b\J	.	8dd\J	.	.	.	8d\	in	.	.	.	.	.	.
!	!	!	!	!	!	!	!	!	!LO:LB:g=original	!	!	!	!	!	!	!
8AA/L	.	.	(16.a\LL	.	16.cc#\LL	.	.	.	16.c#\	no-	.	.	.	.	.	.
.	.	.	32b\JK	.	32dd\JK	.	.	.	32d\	-mi-	.	.	.	.	.	.
8AA/	.	.	8cc#\J)	.	8ee\J	.	.	.	8e\	-ne	.	.	.	.	.	.
8C#/	.	.	8r	.	8r	.	.	.	8r	.	.	.	.	.	.	.
!	!	!	!	!	!LO:LB:g=original	!	!	!	!	!	!	!	!	!	!	!
8AA/J	.	.	8cc#\	.	8aa\	.	.	.	8c#\	in	.	.	.	.	.	.
=28	=28	=28	=28	=28	=28	=28	=28	=28	=28	=28	=28	=28	=28	=28	=28	=28
.	.	.	.	.	.	.	.	.	16qqc#/	.	.	.	.	.	.	.
4E\	.	.	(16cc#\LL	.	(16aa\LL	.	1ryy	.	4.B\	no-	1ryy	.	1ryy	1ryy	1ryy	.
.	.	.	16b\)	.	16gg#\)	.	.	.	.	.	.	.	.	.	.	.
.	.	.	16dd\|	.	16bb\|	.	.	.	.	.	.	.	.	.	.	.
.	.	.	16g#\JJ|	.	16b\JJ|	.	.	.	.	.	.	.	.	.	.	.
4EE/	.	.	16g#/KL	.	16b\KL	.	.	.	.	.	.	.	.	.	.	.
.	.	.	8a/	.	8cc#\	.	.	.	.	.	.	.	.	.	.	.
.	.	.	.	.	.	.	.	.	16c#\	-mi-	.	.	.	.	.	.
.	.	.	16b/Jk	.	16dd\Jk	.	.	.	16d\	-ne	.	.	.	.	.	.
!LO:TX:t=P:problem=mixed beam	!	!	!	!	!	!	!	!	!	!	!	!	!	!	!	!
8AA/L	.	.	(32a\LLL	.	(32cc#\LLL	.	.	.	(32c#\LLL	do-	.	.	.	.	.	.
.	.	.	32b\	.	32dd\	.	.	.	32d\	.	.	.	.	.	.	.
.	.	.	32cc#\	.	32ee\	.	.	.	32e\	.	.	.	.	.	.	.
.	.	.	32dd\JJJ)	.	32ff#\JJJ)	.	.	.	32f#\JJJ)	.	.	.	.	.	.	.
!	!	!	!LO:N:vis=4.	!	!	!	!	!	!	!	!	!	!	!	!	!
8A\	.	.	4cc#\	.	4ee\	.	.	.	4e\	.	.	.	.	.	.	.
8BB/	.	.	.	.	.	.	.	.	.	.	.	.	.	.	.	.
.	.	.	(16qqcc#/LL	.	(16qqee/LL	.	.	.	(16qqe/LL	.	.	.	.	.	.	.
.	.	.	16qqdd/JJ)	.	16qqff#/JJ)	.	.	.	16qqf#/JJ)	.	.	.	.	.	.	.
8A\J	.	.	8ee\	.	8ggn\	.	.	.	8gn\	.	.	.	.	.	.	.
=29	=29	=29	=29	=29	=29	=29	=29	=29	=29	=29	=29	=29	=29	=29	=29	=29
4D/	.	.	16dd\LL	.	(16ff#\LL	.	1ryy	.	(16f#\LL	.	1ryy	.	1ryy	1ryy	1ryy	.
.	.	.	16cc#\	.	16ee\)	.	.	.	16e\)	.	.	.	.	.	.	.
.	.	.	16qqdd/	.	8qqff#/	.	.	.	16qqf#/	.	.	.	.	.	.	.
.	.	.	16cc#\	.	(16ee\	.	.	.	(16e\	.	.	.	.	.	.	.
.	.	.	16b\JJ	.	16dd\JJ)	.	.	.	16d\JJ)	.	.	.	.	.	.	.
.	.	.	16qqcc#/	.	(<8qqee/	.	.	.	(<16qqe/	.	.	.	.	.	.	.
!	!	!	!LO:LB:g=original	!	!	!	!	!	!	!	!	!	!	!	!	!
8r	.	.	16b/LL	.	(32dd\KLL)	.	.	.	(16d\LL)	.	.	.	.	.	.	.
.	.	.	.	.	16.cc#\JJ)	.	.	.	.	.	.	.	.	.	.	.
.	.	.	16a/J	.	.	.	.	.	16c#\)	.	.	.	.	.	.	.
.	.	.	.	.	.	.	.	.	(<16qqc#/	.	.	.	.	.	.	.
8D#X/	.	.	8f#/J	.	(32b\KLL	.	.	.	(16B\)	.	.	.	.	.	.	.
.	.	.	.	.	16.a\JJ)	.	.	.	.	.	.	.	.	.	.	.
.	.	.	.	.	.	.	.	.	16A\JJ)	.	.	.	.	.	.	.
.	.	.	.	.	.	.	.	.	(16qqA/	.	.	.	.	.	.	.
8E\L	.	.	16.B/LL	.	16g#/LL	.	.	.	16.G#/)	.	.	.	.	.	.	.
.	.	.	.	.	16f#/J	.	.	.	.	.	.	.	.	.	.	.
.	.	.	32A/JK	.	.	.	.	.	32F#/	-mi-	.	.	.	.	.	.
16.E\L	.	.	8G#/J	.	8e/Jk	.	.	.	8E/	-ni	.	.	.	.	.	.
32Dn\JJk	.	.	.	.	.	.	.	.	.	.	.	.	.	.	.	.
8C#/L	.	.	8r	.	8r	.	.	.	8r	.	.	.	.	.	.	.
!	!	!	!	!	!	!	!	!	!LO:LB:g=original	!	!	!	!	!	!	!
8AA/J	.	.	8c#/	.	8e/	.	.	.	8E/	qui	.	.	.	.	.	.
=30	=30	=30	=30	=30	=30	=30	=30	=30	=30	=30	=30	=30	=30	=30	=30	=30
!	!	!	!	!	!LO:TUP:b:problem=klamra łukowa	!	!	!	!LO:TX:t=P:problem=mixed beam	!	!	!	!	!	!	!
8.D/L	.	.	8A/L	.	24f#/LL	.	1ryy	.	8F#/L	Ve-	1ryy	.	1ryy	1ryy	1ryy	.
.	.	.	.	.	24g#/	.	.	.	.	.	.	.	.	.	.	.
.	.	.	.	.	24a/JJ	.	.	.	.	.	.	.	.	.	.	.
.	.	.	.	.	.	.	.	.	16qqB/LL	.	.	.	.	.	.	.
.	.	.	.	.	.	.	.	.	16qqc#/JJ	.	.	.	.	.	.	.
!	!	!	!	!	!LO:TUP:b:problem=klamra łukowa	!	!	!	!	!	!	!	!	!	!	!
.	.	.	8f#/	.	24b/LL	.	.	.	8d\J	.	.	.	.	.	.	.
.	.	.	.	.	24cc#/	.	.	.	.	.	.	.	.	.	.	.
16BB/Jk	.	.	.	.	.	.	.	.	.	.	.	.	.	.	.	.
.	.	.	.	.	24dd/JJ	.	.	.	.	.	.	.	.	.	.	.
*	*	*	*	*	*	*	*	*	*tuplet	*	*	*	*	*	*	*
!	!	!	!	!	!LO:TUP:b:problem=klamra łukowa	!	!	!	!LO:TUP:a:problem=klamra łukowa	!	!	!	!	!	!	!
8E\L	.	.	8e/	.	24cc#/LL	.	.	.	24c#\LL	.	.	.	.	.	.	.
.	.	.	.	.	24b/	.	.	.	24B\	.	.	.	.	.	.	.
.	.	.	.	.	24a/JJ	.	.	.	24A\JJ	.	.	.	.	.	.	.
!	!	!	!	!	!LO:TUP:b:problem=klamra łukowa	!	!	!	!LO:TUP:b:problem=klamra łukowa	!	!	!	!	!	!	!
8E\J	.	.	8d/J	.	24g#/LL	.	.	.	24G#/LL	.	.	.	.	.	.	.
.	.	.	.	.	24a/	.	.	.	24A/	.	.	.	.	.	.	.
.	.	.	.	.	24b/JJ	.	.	.	24B/JJ	.	.	.	.	.	.	.
!	!	!	!	!	!LO:TUP:b:problem=klamra łukowa	!	!	!	!	!	!	!	!	!	!	!
8F#\L	.	.	8c#/L	.	24a/LL	.	.	.	8A\L	.	.	.	.	.	.	.
.	.	.	.	.	24b/	.	.	.	.	.	.	.	.	.	.	.
.	.	.	.	.	24cc#/JJ	.	.	.	.	.	.	.	.	.	.	.
.	.	.	.	.	.	.	.	.	(16qqd/LL	.	.	.	.	.	.	.
.	.	.	.	.	.	.	.	.	16qqe/JJ)	.	.	.	.	.	.	.
!	!	!	!	!	!LO:TUP:a:problem=klamra łukowa	!	!	!	!	!	!	!	!	!	!	!
8D\J	.	.	8a/	.	24dd\LL	.	.	.	8f#\J	.	.	.	.	.	.	.
.	.	.	.	.	24ee\	.	.	.	.	.	.	.	.	.	.	.
*	*	*	*	*	*custos:dd	*	*	*	*	*	*	*	*	*	*	*
.	.	.	.	.	24ff#\JJ	.	.	.	.	.	.	.	.	.	.	.
!	!	!	!	!	!LO:LB:g=original	!	!	!	!LO:TUP:a:problem=klamra łukowa	!	!	!	!	!	!	!
!	!	!	!	!	!LO:TUP:a:problem=klamra łukowa	!	!	!	!	!	!	!	!	!	!	!
8G#\L	.	.	8b/	.	24ee\LL	.	.	.	24e\LL	.	.	.	.	.	.	.
.	.	.	.	.	24dd\	.	.	.	24d\	.	.	.	.	.	.	.
.	.	.	.	.	24cc#\JJ	.	.	.	24c#\JJ	.	.	.	.	.	.	.
!	!	!	!	!	!LO:TUP:a:problem=klamra łukowa	!	!	!	!LO:TUP:a:problem=klamra łukowa	!	!	!	!	!	!	!
8G#\J	.	.	8b/J	.	24b\LL	.	.	.	24B\LL	.	.	.	.	.	.	.
.	.	.	.	.	24cc#\	.	.	.	24c#\	.	.	.	.	.	.	.
.	.	.	.	.	24dd\JJ	.	.	.	24d\JJ	.	.	.	.	.	.	.
!LO:LB:g=original	!	!	!	!	!	!	!	!	!	!	!	!	!	!	!	!
=31	=31	=31	=31	=31	=31	=31	=31	=31	=31	=31	=31	=31	=31	=31	=31	=31
4A\	.	.	8e/	.	8cc#\	.	1ryy	.	8c#\	-nit	1ryy	.	1ryy	1ryy	1ryy	.
.	.	.	(32aa\KLL	.	(32ccc#\KLL	.	.	.	(32a\KLL	in	.	.	.	.	.	.
.	.	.	16.ee\JJ)	.	16.aa\JJ)	.	.	.	16.e\JJ)	.	.	.	.	.	.	.
8r	.	.	(32cc#\KLL	.	(32ee\KLL	.	.	.	(32c#\KLL	no-	.	.	.	.	.	.
.	.	.	16.a\JJ)	.	16.cc#\JJ)	.	.	.	16.A\JJ)	.	.	.	.	.	.	.
8AA/	.	.	24e/LL|	.	24a\LL|	.	.	.	(32c#\KLL	-mi-	.	.	.	.	.	.
.	.	.	.	.	.	.	.	.	16.e\JJ)	.	.	.	.	.	.	.
.	.	.	24a/|	.	24cc#\|	.	.	.	.	.	.	.	.	.	.	.
.	.	.	24cc#/JJ|	.	24ee\JJ|	.	.	.	.	.	.	.	.	.	.	.
.	.	.	8qqcc#/	.	.	.	.	.	(<16qqe/	.	.	.	.	.	.	.
4E\	.	.	8b\	.	8dd\	.	.	.	8d\)	-ne	.	.	.	.	.	.
.	.	.	(32dd\KLL	.	(32bb\KLL	.	.	.	16B\LL	in	.	.	.	.	.	.
.	.	.	16.b\JJ)	.	16.gg#\JJ)	.	.	.	.	.	.	.	.	.	.	.
.	.	.	.	.	.	.	.	.	16G#\JJ	.	.	.	.	.	.	.
8r	.	.	32b\KLL	.	(32dd\KLL	.	.	.	8E/	no-	.	.	.	.	.	.
.	.	.	16.g#\JJ	.	16.b\JJ)	.	.	.	.	.	.	.	.	.	.	.
8EE/	.	.	24e/LL|	.	24g#\LL|	.	.	.	8d\	-mi-	.	.	.	.	.	.
.	.	.	24g#/|	.	24b\|	.	.	.	.	.	.	.	.	.	.	.
.	.	.	24b/JJ|	.	24dd\JJ|	.	.	.	.	.	.	.	.	.	.	.
!	!	!	!	!	!	!	!	!	!LO:LB:g=original	!	!	!	!	!	!	!
=32	=32	=32	=32	=32	=32	=32	=32	=32	=32	=32	=32	=32	=32	=32	=32	=32
4AA/	.	.	8a/	.	8cc#\	.	1ryy	.	8c#\	-ne	1ryy	.	1ryy	1ryy	1ryy	.
.	.	.	(32aa\KLL	.	(32ccc#\KLL	.	.	.	(32a\KLL	qui	.	.	.	.	.	.
.	.	.	16.ee\JJ)	.	16.aa\JJ)	.	.	.	16.e\JJ)	.	.	.	.	.	.	.
8r	.	.	(32cc#\KLL	.	(32ee\KLL	.	.	.	(32c#\KLL	ve-	.	.	.	.	.	.
.	.	.	16.a\JJ)	.	16.cc#\JJ)	.	.	.	16.A\JJ)	.	.	.	.	.	.	.
8AA/	.	.	24e/LL|	.	24a\LL|	.	.	.	16c#\	-nit	.	.	.	.	.	.
.	.	.	24a/|	.	24cc#\|	.	.	.	.	.	.	.	.	.	.	.
.	.	.	.	.	.	.	.	.	16e\	in	.	.	.	.	.	.
*	*	*	*custos:cc	*	*	*	*	*	*	*	*	*	*	*	*	*
.	.	.	24cc#/JJ|	.	24ee\JJ|	.	.	.	.	.	.	.	.	.	.	.
!	!	!	!LO:LB:g=original	!	!	!	!	!	!	!	!	!	!	!	!	!
.	.	.	(<8qqcc#/	.	8qqee/	.	.	.	(<16qqe/	.	.	.	.	.	.	.
4E\	.	.	8b\)	.	8dd\	.	.	.	8d\)	no-	.	.	.	.	.	.
.	.	.	(32dd\KLL	.	(32bb\KLL	.	.	.	(16B\LL	-mi-	.	.	.	.	.	.
.	.	.	16.b\JJ)	.	16.gg#\JJ)	.	.	.	.	.	.	.	.	.	.	.
.	.	.	.	.	.	.	.	.	16G#\JJ)	.	.	.	.	.	.	.
8r	.	.	32b\KLL	.	(32dd\KLL	.	.	.	(16E/LL	-ne	.	.	.	.	.	.
.	.	.	16.g#\JJ	.	16.b\JJ)	.	.	.	.	.	.	.	.	.	.	.
.	.	.	.	.	.	.	.	.	16G#/JJ)	.	.	.	.	.	.	.
8EE/	.	.	24e/LL|	.	24g#\LL|	.	.	.	(16B\	in	.	.	.	.	.	.
.	.	.	24g#/|	.	24b\|	.	.	.	.	.	.	.	.	.	.	.
.	.	.	.	.	.	.	.	.	16d\)	.	.	.	.	.	.	.
.	.	.	24b/JJ|	.	24dd\JJ|	.	.	.	.	.	.	.	.	.	.	.
!	!	!	!	!	!LO:LB:g=original	!	!	!	!	!	!	!	!	!	!	!
=33	=33	=33	=33	=33	=33	=33	=33	=33	=33	=33	=33	=33	=33	=33	=33	=33
8AA/L	.	.	8cc#\L	.	(32cc#\KLL	.	1ryy	.	8c#\L	no-	1ryy	.	1ryy	1ryy	1ryy	.
.	.	.	.	.	16.aa\JJ)	.	.	.	.	.	.	.	.	.	.	.
8BB/	.	.	8dd\J	.	(32gg#\KLL	.	.	.	8d\J	.	.	.	.	.	.	.
.	.	.	.	.	16.ff#\JJ)	.	.	.	.	.	.	.	.	.	.	.
8C#/	.	.	32ee\KLL	.	(32ee\KLL	.	.	.	8eM\	-mi-	.	.	.	.	.	.
.	.	.	16.a\JJ	.	16.a\JJ)	.	.	.	.	.	.	.	.	.	.	.
8D#X/J	.	.	32ff#\KLL	.	(32ff#\KLL	.	.	.	(16f#\LL	-ne	.	.	.	.	.	.
.	.	.	16.a\JJ	.	16.a\JJ)	.	.	.	.	.	.	.	.	.	.	.
.	.	.	.	.	.	.	.	.	16A\JJ)	.	.	.	.	.	.	.
4E\	.	.	4e/	.	4e/	.	.	.	4E/	Do-	.	.	.	.	.	.
4EE/	.	.	4bM\	.	4bM\	.	.	.	4B\	.	.	.	.	.	.	.
=34	=34	=34	=34	=34	=34	=34	=34	=34	=34	=34	=34	=34	=34	=34	=34	=34
8AA/L	.	.	(32cc#\KLL	.	(32cc#\KLL	.	1ryy	.	(32c#\KLL	.	1ryy	.	1ryy	1ryy	1ryy	.
.	.	.	16.aa\JJ)	.	16.aa\JJ)	.	.	.	16.a\JJ)	.	.	.	.	.	.	.
8BB/	.	.	(32gg#\KLL	.	(32gg#\KLL	.	.	.	(32g#\KLL	.	.	.	.	.	.	.
.	.	.	16.ff#\JJ)	.	16.ff#\JJ)	.	.	.	16.f#\JJ)	.	.	.	.	.	.	.
!	!	!	!	!	!	!	!	!	!LO:LB:g=original	!	!	!	!	!	!	!
8C#/	.	.	(32ee\KLL	.	(32ee\KLL	.	.	.	8.eM\L	.	.	.	.	.	.	.
.	.	.	16.a\JJ)	.	16.a\JJ)	.	.	.	.	.	.	.	.	.	.	.
!LO:SIC:v:s=8D#/J	!	!	!	!	!	!	!	!	!	!	!	!	!	!	!	!
8D/J	.	.	(32ff#\KLL	.	(32ff#\KLL	.	.	.	.	.	.	.	.	.	.	.
.	.	.	16.a\JJ)	.	16.a\JJ)	.	.	.	.	.	.	.	.	.	.	.
.	.	.	.	.	.	.	.	.	(32d\LL	.	.	.	.	.	.	.
.	.	.	.	.	.	.	.	.	32e\JJJ)	.	.	.	.	.	.	.
4E\	.	.	4e/	.	4e/	.	.	.	16f#\LL	.	.	.	.	.	.	.
.	.	.	.	.	.	.	.	.	16A\JJ	.	.	.	.	.	.	.
.	.	.	.	.	.	.	.	.	8E;/	.	.	.	.	.	.	.
4EE/	.	.	4bM\	.	4bM/	.	.	.	8.B\	.	.	.	.	.	.	.
.	.	.	.	.	.	.	.	.	16B\	-mi-	.	.	.	.	.	.
=35	=35	=35	=35	=35	=35	=35	=35	=35	=35	=35	=35	=35	=35	=35	=35	=35
!	!	!LO:DY:a	!	!LO:DY:a	!	!	!	!	!	!	!	!	!	!	!	!
8AA/L	.	f	8c#/L	f	[4a/	.	1ryy	.	4A/	-ni	1ryy	.	1ryy	1ryy	1ryy	.
8AA/	.	.	8c#/	.	.	.	.	.	.	.	.	.	.	.	.	.
8AA/	.	.	8c#/	.	24a\LL]	.	.	.	4r	.	.	.	.	.	.	.
.	.	.	.	.	24ee\	.	.	.	.	.	.	.	.	.	.	.
.	.	.	.	.	24dd\JJ	.	.	.	.	.	.	.	.	.	.	.
8AA/J	.	.	8c#/J	.	24cc#\LL	.	.	.	.	.	.	.	.	.	.	.
.	.	.	.	.	24b\	.	.	.	.	.	.	.	.	.	.	.
.	.	.	.	.	24a\JJ	.	.	.	.	.	.	.	.	.	.	.
!	!	!	!	!	!LO:TX:a:t=Da Capo	!	!	!	!	!	!	!	!	!	!	!
8AA/L	2 4	.	8.d/L	.	16b/LLyy	.	.	.	2r	.	.	.	.	.	.	.
.	.	.	.	.	16g#X/Jyy	.	.	.	.	.	.	.	.	.	.	.
8AA/	8	.	.	.	8a/Jyy	.	.	.	.	.	.	.	.	.	.	.
.	.	.	32c#/LL	.	.	.	.	.	.	.	.	.	.	.	.	.
!	!	!	!LO:N:vis=16	!	!	!	!	!	!	!	!	!	!	!	!	!
.	.	.	32d/JJJ	.	.	.	.	.	.	.	.	.	.	.	.	.
!	!	!	!LO:TX:t=P:problem=mixed beam	!	!	!	!	!	!	!	!	!	!	!	!	!
8AA/	.	.	8e/L	.	8ryy	.	.	.	.	.	.	.	.	.	.	.
8AA/J	.	.	8cc#\J	.	8aa\yy	.	.	.	.	.	.	.	.	.	.	.
!LO:LB:g=original	!	!	!	!	!	!	!	!	!	!	!	!	!	!	!	!
=36	=36	=36	=36	=36	=36	=36	=36	=36	=36	=36	=36	=36	=36	=36	=36	=36
.	.	.	(<8qqcc#/	.	(y<8qqaa/yy	.	.	.	.	.	.	.	.	.	.	.
4E\	.	.	8.b\L)	.	8.gg#\L)yy	.	1ryy	.	00r	.	1ryy	.	1ryy	1ryy	1ryy	.
.	.	.	16g#\Jk	.	16b\Kyy	.	.	.	.	.	.	.	.	.	.	.
8r	.	.	8a\L	.	8cc#\yy	.	.	.	.	.	.	.	.	.	.	.
*	*	*	*custos:cc	*	*	*	*	*	*	*	*	*	*	*	*	*
8E\	.	.	8b\J	.	8dd\Jyy	.	.	.	.	.	.	.	.	.	.	.
!LO:TX:t=P:problem=mixed beam	!	!	!LO:LB:g=original	!	!	!	!	!	!	!	!	!	!	!	!	!
8A\L	.	.	16.a\LL	.	16.cc#\LLyy	.	.	.	.	.	.	.	.	.	.	.
.	.	.	32b\JK	.	32dd\JKyy	.	.	.	.	.	.	.	.	.	.	.
8AA/	.	.	8cc#\J	.	8ee\Jyyy	.	.	.	.	.	.	.	.	.	.	.
8C#/	.	.	8r	.	8ryy	.	.	.	.	.	.	.	.	.	.	.
8AA/J	.	.	8cc#\	.	8aa\yy	.	.	.	.	.	.	.	.	.	.	.
=37	=37	=37	=37	=37	=37	=37	=37	=37	=37	=37	=37	=37	=37	=37	=37	=37
!	!	!	!	!	!LO:TX:t=P:problem=mixed beam	!	!	!	!	!	!	!	!	!	!	!
4E\	.	.	(16cc#\LL	.	(y16aa\LLyy	.	1ryy	.	.	.	1ryy	.	1ryy	1ryy	1ryy	.
.	.	.	16b\)	.	16gg#\)yyy	.	.	.	.	.	.	.	.	.	.	.
.	.	.	16dd\|	.	16bb\|y	.	.	.	.	.	.	.	.	.	.	.
.	.	.	16g#\JJ|	.	16b/JJ|yy	.	.	.	.	.	.	.	.	.	.	.
4EE/	.	.	16g#/KL	.	16b\KLyy	.	.	.	.	.	.	.	.	.	.	.
.	.	.	8a/	.	8cc#\yy	.	.	.	.	.	.	.	.	.	.	.
.	.	.	16b/Jk	.	16dd\Jkyy	.	.	.	.	.	.	.	.	.	.	.
!LO:TX:t=P:problem=mixed beam	!	!	!	!	!	!	!	!	!	!	!	!	!	!	!	!
8AA/L	.	.	(32a/LLL	.	(y32cc#\LLLyy	.	.	.	.	.	.	.	.	.	.	.
.	.	.	32b/	.	32dd\yy	.	.	.	.	.	.	.	.	.	.	.
.	.	.	32cc#/	.	32ee\yy	.	.	.	.	.	.	.	.	.	.	.
.	.	.	32dd/JJJ)	.	32ff#\JJJ)yy	.	.	.	.	.	.	.	.	.	.	.
8A\	.	.	4cc#\	.	4ee\yy	.	.	.	.	.	.	.	.	.	.	.
8c#\	.	.	.	.	.	.	.	.	.	.	.	.	.	.	.	.
8A\J	.	.	8ee\	.	8ccc#\yy	.	.	.	.	.	.	.	.	.	.	.
!	!	!	!	!	!LO:LB:g=original	!	!	!	!	!	!	!	!	!	!	!
=38	=38	=38	=38	=38	=38	=38	=38	=38	=38	=38	=38	=38	=38	=38	=38	=38
8r	.	.	(32g#/LLL	.	(y32b\LLLyy	.	1ryy	.	.	.	1ryy	.	1ryy	1ryy	1ryy	.
.	.	.	32a/	.	32cc#\yyy	.	.	.	.	.	.	.	.	.	.	.
.	.	.	32b/	.	32dd\y	.	.	.	.	.	.	.	.	.	.	.
.	.	.	32cc#/JJJ)	.	32ee\JJJ)yy	.	.	.	.	.	.	.	.	.	.	.
8E\L	.	.	4b\	.	4dd\yy	.	.	.	.	.	.	.	.	.	.	.
8G#\	.	.	.	.	.	.	.	.	.	.	.	.	.	.	.	.
8E\J	.	.	8dd\	.	8bb\yy	.	.	.	.	.	.	.	.	.	.	.
!	!	!	!	!	!LO:N:vis=16	!	!	!	!	!	!	!	!	!	!	!
8AA/L	.	.	16cc#\LL	.	32cc#\LLLyy	.	.	.	.	.	.	.	.	.	.	.
!	!	!	!	!	!LO:N:vis=16	!	!	!	!	!	!	!	!	!	!	!
.	.	.	.	.	32aa\yy	.	.	.	.	.	.	.	.	.	.	.
!	!	!	!	!	!LO:N:vis=16	!	!	!	!	!	!	!	!	!	!	!
.	.	.	16dd\JJ	.	32gg#\yy	.	.	.	.	.	.	.	.	.	.	.
!	!	!	!	!	!LO:N:vis=16	!	!	!	!	!	!	!	!	!	!	!
.	.	.	.	.	32ff#\JJJyy	.	.	.	.	.	.	.	.	.	.	.
.	.	.	.	.	(y<8qqff#/yy	.	.	.	.	.	.	.	.	.	.	.
8BB/	.	.	8.eeM\L	.	8.eeMy\L)yy	.	.	.	.	.	.	.	.	.	.	.
8C#/	.	.	.	.	.	.	.	.	.	.	.	.	.	.	.	.
.	.	.	(32dd\LL	.	(y32dd\LLyy	.	.	.	.	.	.	.	.	.	.	.
.	.	.	32ee\JJJ)	.	32ee\JJJ)yy	.	.	.	.	.	.	.	.	.	.	.
!	!	!	!LO:N:vis=8	!	!LO:TX:t=P:problem=mixed beam	!	!	!	!	!	!	!	!	!	!	!
8D#X/J	.	.	16ff#\LL	.	16ff#\LLyy	.	.	.	.	.	.	.	.	.	.	.
!	!	!	!LO:N:vis=8	!	!	!	!	!	!	!	!	!	!	!	!	!
.	.	.	16a\JJ	.	16a/JJyy	.	.	.	.	.	.	.	.	.	.	.
=39	=39	=39	=39	=39	=39	=39	=39	=39	=39	=39	=39	=39	=39	=39	=39	=39
8E\L	.	.	16.g#/LL	.	16.g#/LLyy	.	1ryy	.	.	.	1ryy	.	1ryy	1ryy	1ryy	.
.	.	.	32f#/JK	.	32f#/JKyyy	.	.	.	.	.	.	.	.	.	.	.
8E\	.	.	8e/J	.	8e/Jy	.	.	.	.	.	.	.	.	.	.	.
8D\	.	.	8r	.	8ryy	.	.	.	.	.	.	.	.	.	.	.
8C#\J	.	.	8e/	.	8e/yy	.	.	.	.	.	.	.	.	.	.	.
!	!	!	!LO:TUP:b:problem=klamra łukowa	!	!LO:TUP:b:problem=klamra łukowa	!	!	!	!	!	!	!	!	!	!	!
8D\L	.	.	24f#/LL	.	24f#/LLyy	.	.	.	.	.	.	.	.	.	.	.
.	.	.	24g#/	.	24g#/yy	.	.	.	.	.	.	.	.	.	.	.
.	.	.	24a/JJ	.	24a/JJyy	.	.	.	.	.	.	.	.	.	.	.
!	!	!	!LO:TUP:b:problem=klamra łukowa	!	!LO:TUP:b:problem=klamra łukowa	!	!	!	!	!	!	!	!	!	!	!
8D\	.	.	24b/LL	.	24b/LLyy	.	.	.	.	.	.	.	.	.	.	.
.	.	.	24cc#/	.	24cc#/yy	.	.	.	.	.	.	.	.	.	.	.
.	.	.	24dd/JJ	.	24dd/JJyy	.	.	.	.	.	.	.	.	.	.	.
!	!	!	!LO:TUP:b:problem=klamra łukowa	!	!LO:TUP:a:problem=klamra łukowa	!	!	!	!	!	!	!	!	!	!	!
8E\	.	.	24cc#/LL	.	24cc#\LLyy	.	.	.	.	.	.	.	.	.	.	.
.	.	.	24b/	.	24b\yy	.	.	.	.	.	.	.	.	.	.	.
.	.	.	24a/JJ	.	24a\JJyy	.	.	.	.	.	.	.	.	.	.	.
!	!	!	!LO:TUP:b:problem=klamra łukowa	!	!LO:TUP:b:problem=klamra łukowa	!	!	!	!	!	!	!	!	!	!	!
8E\J	.	.	24g#/LL	.	24g#/LLyy	.	.	.	.	.	.	.	.	.	.	.
.	.	.	24a/	.	24a/yy	.	.	.	.	.	.	.	.	.	.	.
.	.	.	24b/JJ	.	24b/JJyy	.	.	.	.	.	.	.	.	.	.	.
!	!	!	!LO:LB:g=original	!	!	!	!	!	!	!	!	!	!	!	!	!
=40	=40	=40	=40	=40	=40	=40	=40	=40	=40	=40	=40	=40	=40	=40	=40	=40
!	!	!	!LO:TUP:b:problem=klamra łukowa	!	!LO:TUP:a:problem=klamra łukowa	!	!	!	!	!	!	!	!	!	!	!
8F#\L	.	.	24a/LL	.	24a\LLyy	.	1ryy	.	00r	.	1ryy	.	1ryy	1ryy	1ryy	.
.	.	.	24b/	.	24b\yy	.	.	.	.	.	.	.	.	.	.	.
.	.	.	24cc#/JJ	.	24cc#\JJyy	.	.	.	.	.	.	.	.	.	.	.
!	!	!	!LO:TUP:a:problem=klamra łukowa	!	!LO:TUP:a:problem=klamra łukowa	!	!	!	!	!	!	!	!	!	!	!
8F#\	.	.	24dd\LL	.	24dd\LLyy	.	.	.	.	.	.	.	.	.	.	.
.	.	.	24ee\	.	24ee\yy	.	.	.	.	.	.	.	.	.	.	.
.	.	.	24ff#\JJ	.	24ff#\JJyy	.	.	.	.	.	.	.	.	.	.	.
!	!	!	!LO:TUP:a:problem=klamra łukowa	!	!LO:TUP:a:problem=klamra łukowa	!	!	!	!	!	!	!	!	!	!	!
8G#\	.	.	24ee\LL	.	24ee\LLyy	.	.	.	.	.	.	.	.	.	.	.
.	.	.	24dd\	.	24dd\yyy	.	.	.	.	.	.	.	.	.	.	.
.	.	.	24cc#\JJ	.	24cc#\JJy	.	.	.	.	.	.	.	.	.	.	.
!	!	!	!LO:TUP:a:problem=klamra łukowa	!	!	!	!	!	!	!	!	!	!	!	!	!
8G#\J	.	.	24b\LL	.	24b\LLyy	.	.	.	.	.	.	.	.	.	.	.
.	.	.	24cc#\	.	24cc#\yy	.	.	.	.	.	.	.	.	.	.	.
.	.	.	24dd\JJ	.	24dd\JJyy	.	.	.	.	.	.	.	.	.	.	.
4A\	.	.	8cc#\	.	8cc#\yy	.	.	.	.	.	.	.	.	.	.	.
.	.	.	(32aa\KLL	.	(y32ccc#\KLLyy	.	.	.	.	.	.	.	.	.	.	.
*	*	*	*	*	*custos:ee	*	*	*	*	*	*	*	*	*	*	*
.	.	.	16.ee\JJ)	.	16.aa\JJ)yy	.	.	.	.	.	.	.	.	.	.	.
*custos:F	*	*	*	*	*	*	*	*	*	*	*	*	*	*	*	*
!LO:TX:a:t=P:problem=wszystkie custos użyte jako łamanie pięciolinii	!	!	!	!	!	!	!	!	!	!	!	!	!	!	!	!
!	!	!	!	!	!LO:LB:g=original	!	!	!	!	!	!	!	!	!	!	!
8r	.	.	(32cc#\KLL	.	(y32ee\KLLyy	.	.	.	.	.	.	.	.	.	.	.
.	.	.	16.a\JJ)	.	16.cc#\JJ)yy	.	.	.	.	.	.	.	.	.	.	.
!LO:LB:g=original	!	!	!	!	!	!	!	!	!	!	!	!	!	!	!	!
8A\	.	.	24e/LL|	.	24a\LL|yy	.	.	.	.	.	.	.	.	.	.	.
.	.	.	24a/|	.	24cc#\|yy	.	.	.	.	.	.	.	.	.	.	.
.	.	.	24cc#/JJ|	.	24ee\JJ|yy	.	.	.	.	.	.	.	.	.	.	.
=41	=41	=41	=41	=41	=41	=41	=41	=41	=41	=41	=41	=41	=41	=41	=41	=41
.	.	.	8qqcc#/	.	(y<8qqee/yy	.	.	.	.	.	.	.	.	.	.	.
4e\	.	.	8b\	.	8dd\)yy	.	1ryy	.	.	.	1ryy	.	1ryy	1ryy	1ryy	.
.	.	.	(32ee\KLL	.	(y32bb\KLLyy	.	.	.	.	.	.	.	.	.	.	.
.	.	.	16.b\JJ)	.	16.gg#\JJ)yy	.	.	.	.	.	.	.	.	.	.	.
8r	.	.	(32b\KLL	.	(y32dd\KLLyy	.	.	.	.	.	.	.	.	.	.	.
.	.	.	16.g#\JJ)	.	16.b\JJ)yy	.	.	.	.	.	.	.	.	.	.	.
8E\	.	.	24e/LL|	.	24g#\LL|yy	.	.	.	.	.	.	.	.	.	.	.
.	.	.	24g#/|	.	24b\|yy	.	.	.	.	.	.	.	.	.	.	.
.	.	.	24b/JJ|	.	24dd\JJ|yy	.	.	.	.	.	.	.	.	.	.	.
4A\	.	.	8a/	.	8cc#\yy	.	.	.	.	.	.	.	.	.	.	.
.	.	.	(32aa\KLL	.	(y32ccc#\KLLyy	.	.	.	.	.	.	.	.	.	.	.
.	.	.	16.ee\JJ)	.	16.aa\JJ)yy	.	.	.	.	.	.	.	.	.	.	.
8r	.	.	(32cc#\KLL	.	(y32ee\KLLyy	.	.	.	.	.	.	.	.	.	.	.
.	.	.	16.a\JJ)	.	16.cc#\JJ)yy	.	.	.	.	.	.	.	.	.	.	.
8AA/	.	.	24e/LL|	.	24a\LL|yy	.	.	.	.	.	.	.	.	.	.	.
.	.	.	24a/|	.	24cc#\|yy	.	.	.	.	.	.	.	.	.	.	.
.	.	.	24cc#/JJ|	.	24ee\JJ|yy	.	.	.	.	.	.	.	.	.	.	.
=42	=42	=42	=42	=42	=42	=42	=42	=42	=42	=42	=42	=42	=42	=42	=42	=42
!	!	!	!	!LO:DY:a	!	!	!	!	!	!	!	!	!	!	!	!
4E\	.	.	8b\	p	8dd\yy	.	1ryy	.	.	.	1ryy	.	1ryy	1ryy	1ryy	.
.	.	.	(32dd\KLL	.	(y32bb\KLLyy	.	.	.	.	.	.	.	.	.	.	.
.	.	.	16.b\JJ)	.	16.gg#\JJ)yy	.	.	.	.	.	.	.	.	.	.	.
8r	.	.	(32b\KLL	.	(y32dd\KLLyyy	.	.	.	.	.	.	.	.	.	.	.
.	.	.	16.g#\JJ)	.	16.b\JJ)y	.	.	.	.	.	.	.	.	.	.	.
8E\	.	.	24e/LL|	.	24g#\LL|yy	.	.	.	.	.	.	.	.	.	.	.
.	.	.	24g#/|	.	24b\|yy	.	.	.	.	.	.	.	.	.	.	.
*	*	*	*custos:cc	*	*	*	*	*	*	*	*	*	*	*	*	*
.	.	.	24b/JJ|	.	24dd\JJ|yy	.	.	.	.	.	.	.	.	.	.	.
!	!	!	!LO:LB:g=original	!	!	!	!	!	!	!	!	!	!	!	!	!
8AA/L	.	.	(32cc#\KLL	.	16cc#\KLyy	.	.	.	.	.	.	.	.	.	.	.
.	.	.	16.aa\JJ)	.	.	.	.	.	.	.	.	.	.	.	.	.
.	.	.	.	.	8aa\yy	.	.	.	.	.	.	.	.	.	.	.
8BB/	.	.	(32gg#\KLL	.	.	.	.	.	.	.	.	.	.	.	.	.
.	.	.	16.ff#\JJ)	.	.	.	.	.	.	.	.	.	.	.	.	.
.	.	.	.	.	(y32gg#\LLyyy	.	.	.	.	.	.	.	.	.	.	.
.	.	.	.	.	32ff#\JJJ)yy	.	.	.	.	.	.	.	.	.	.	.
8C#/	.	.	(32ee\KLL	.	(y32ee\KLLyy	.	.	.	.	.	.	.	.	.	.	.
.	.	.	16.a\JJ)	.	16.a\JJ)yy	.	.	.	.	.	.	.	.	.	.	.
8D#X/J	.	.	(32ff#\KLL	.	(y32ff#\KLLyy	.	.	.	.	.	.	.	.	.	.	.
.	.	.	16.a\JJ)	.	16.a\JJ)yy	.	.	.	.	.	.	.	.	.	.	.
!	!	!	!	!	!LO:LB:g=original	!	!	!	!	!	!	!	!	!	!	!
=43	=43	=43	=43	=43	=43	=43	=43	=43	=43	=43	=43	=43	=43	=43	=43	=43
4E\	.	.	4e/	.	4e/yy	.	1ryy	.	.	.	1ryy	.	1ryy	1ryy	1ryy	.
4EE/	.	.	4bM\	.	4bMy/yy	.	.	.	.	.	.	.	.	.	.	.
!	!	!LO:DY:a	!	!	!	!	!	!	!	!	!	!	!	!	!	!
8AA/L	.	p	(32cc#\KLL	.	16cc#\KLyy	.	.	.	.	.	.	.	.	.	.	.
.	.	.	16.aa\JJ)	.	.	.	.	.	.	.	.	.	.	.	.	.
.	.	.	.	.	8aa\yy	.	.	.	.	.	.	.	.	.	.	.
8BB/	.	.	(32gg#\KLL	.	.	.	.	.	.	.	.	.	.	.	.	.
.	.	.	16.ff#\JJ)	.	.	.	.	.	.	.	.	.	.	.	.	.
.	.	.	.	.	(y32gg#\LLyy	.	.	.	.	.	.	.	.	.	.	.
.	.	.	.	.	32ff#\JJJ)yy	.	.	.	.	.	.	.	.	.	.	.
8C#/	.	.	(32ee\KLL	.	(y32ee\KLLyy	.	.	.	.	.	.	.	.	.	.	.
.	.	.	16.a\JJ)	.	16.a\JJ)yy	.	.	.	.	.	.	.	.	.	.	.
8D#X/J	.	.	(32ff#\KLL	.	(y32ff#\KLLyy	.	.	.	.	.	.	.	.	.	.	.
.	.	.	16.a\JJ)	.	16.a\JJ)yy	.	.	.	.	.	.	.	.	.	.	.
=44	=44	=44	=44	=44	=44	=44	=44	=44	=44	=44	=44	=44	=44	=44	=44	=44
!	!	!LO:DY:a	!LO:N:vis=8.	!	!LO:N:vis=8.	!	!	!	!	!	!	!	!	!	!	!
4E\	.	f	8e/L	.	8e/Lyy	.	1ryy	.	1r	.	1ryy	.	1ryy	1ryy	1ryy	.
.	.	.	(32f#/LL	.	(y32f#/LLyy	.	.	.	.	.	.	.	.	.	.	.
.	.	.	32g#/	.	32g#/yy	.	.	.	.	.	.	.	.	.	.	.
.	.	.	32a/	.	32a/yy	.	.	.	.	.	.	.	.	.	.	.
.	.	.	32b/JJJ)	.	32b/JJJ)yy	.	.	.	.	.	.	.	.	.	.	.
4EE/	.	.	4bM/	.	4bMy/yy	.	.	.	.	.	.	.	.	.	.	.
4AA/	.	.	8a/L	.	8a/Lyy	.	.	.	.	.	.	.	.	.	.	.
.	.	.	8e/J	.	8e/Jyy	.	.	.	.	.	.	.	.	.	.	.
!LO:TX:a:i:t=Osanna ut Supra	!	!	!LO:TX:a:i:t=Osanna ut Supra	!	!LO:TX:a:i:t=Osanna\nut Supra	!	!LO:TX:i:Ia:t=Osanna ut\nSupra	!	!LO:TX:a:i:t=Osanna ut Supra	!	!LO:TX:a:i:t=Osanna ut\nSupra	!	!	!	!	!
4r	.	.	4A;/	.	4A/yy	.	.	.	.	.	.	.	.	.	.	.
=45||	=45||	=45||	=45||	=45||	=45||	=45||	=45||	=45||	=45||	=45||	=45||	=45||	=45||	=45||	=45||	=45||
!!!key: D
*k[f#c#]	*	*	*k[f#c#]	*	*k[f#c#]	*	*k[f#c#]	*	*k[f#c#]	*	*k[f#c#]	*	*	*k[f#c#]	*k[f#c#]	*
*M2/4	*	*	*M2/4	*	*M2/4	*	*M2/4	*	*M2/4	*	*M2/4	*	*	*M2/4	*M2/4	*
!LO:TX:a:i:t=Solo	!	!	!	!	!	!	!	!	!	!	!	!	!	!	!	!
8ryy	.	.	0ryy	.	0ryy	.	0ryy	.	0ryy	.	1ryy	.	2ryy	0r	0r	.
8d\Lyy	.	.	.	.	.	.	.	.	.	.	.	.	.	.	.	.
8c#\yy	.	.	.	.	.	.	.	.	.	.	.	.	.	.	.	.
8A\Jyy	.	.	.	.	.	.	.	.	.	.	.	.	.	.	.	.
=46	=46	=46	=46	=46	=46	=46	=46	=46	=46	=46	=46	=46	=46	=46	=46	=46
8d\Lyy	.	.	.	.	.	.	.	.	.	.	.	.	2ryy	.	.	.
16F#\Lyy	.	.	.	.	.	.	.	.	.	.	.	.	.	.	.	.
16E\JJyy	.	.	.	.	.	.	.	.	.	.	.	.	.	.	.	.
8D\Lyy	.	.	.	.	.	.	.	.	.	.	.	.	.	.	.	.
8E\Jyy	.	.	.	.	.	.	.	.	.	.	.	.	.	.	.	.
=47	=47	=47	=47	=47	=47	=47	=47	=47	=47	=47	=47	=47	=47	=47	=47	=47
4F#\yy	.	.	.	.	.	.	.	.	.	.	2ryy	.	2ryy	.	.	.
4G\yy	.	.	.	.	.	.	.	.	.	.	.	.	.	.	.	.
=48	=48	=48	=48	=48	=48	=48	=48	=48	=48	=48	=48	=48	=48	=48	=48	=48
8A\Lyy	.	.	.	.	.	.	.	.	.	.	4a\yy	O-	2ryy	.	.	.
8c#\yy	.	.	.	.	.	.	.	.	.	.	.	.	.	.	.	.
8G#X\yy	.	.	.	.	.	.	.	.	.	.	4b\yy	-san-	.	.	.	.
8E\Jyy	.	.	.	.	.	.	.	.	.	.	.	.	.	.	.	.
=49	=49	=49	=49	=49	=49	=49	=49	=49	=49	=49	=49	=49	=49	=49	=49	=49
8A\Lyy	.	.	0ryy	.	0ryy	.	0ryy	.	0ryy	.	8cc#\yy	-na	2ryy	0r	0r	.
16c#\Lyy	.	.	.	.	.	.	.	.	.	.	8a\yy	o-	.	.	.	.
16B\JJyy	.	.	.	.	.	.	.	.	.	.	.	.	.	.	.	.
8A\Lyy	.	.	.	.	.	.	.	.	.	.	8cc#\yy	-san-	.	.	.	.
8B\Jyy	.	.	.	.	.	.	.	.	.	.	8dd\yy	-na	.	.	.	.
=50	=50	=50	=50	=50	=50	=50	=50	=50	=50	=50	=50	=50	=50	=50	=50	=50
4c#\yy	.	.	.	.	.	.	.	.	.	.	8ee\yy	in	2ryy	.	.	.
.	.	.	.	.	.	.	.	.	.	.	16dd\LLyy	ex-	.	.	.	.
.	.	.	.	.	.	.	.	.	.	.	16cc#\JJyy	.	.	.	.	.
4d\yy	.	.	.	.	.	.	.	.	.	.	8b\Lyy	-cel-	.	.	.	.
.	.	.	.	.	.	.	.	.	.	.	8a\Jyy	.	.	.	.	.
!LO:LB:g=original	!	!	!	!	!	!	!	!	!	!	!LO:LB:g=original	!	!	!	!	!
=51	=51	=51	=51	=51	=51	=51	=51	=51	=51	=51	=51	=51	=51	=51	=51	=51
4e\yy	.	.	.	.	.	.	.	.	.	.	8g#X\yy	-sis	2ryy	.	.	.
.	.	.	.	.	.	.	.	.	.	.	8ryy	.	.	.	.	.
8ryy	.	.	.	.	.	.	.	.	.	.	4ryy	.	.	.	.	.
8E\yy	#	.	.	.	.	.	.	.	.	.	.	.	.	.	.	.
=52	=52	=52	=52	=52	=52	=52	=52	=52	=52	=52	=52	=52	=52	=52	=52	=52
4F#\yy	6	.	.	.	.	.	.	.	.	.	2ryy	.	2ryy	.	.	.
4G#X\yy	6 5	.	.	.	.	.	.	.	.	.	.	.	.	.	.	.
=53	=53	=53	=53	=53	=53	=53	=53	=53	=53	=53	=53	=53	=53	=53	=53	=53
!LO:TX:t=P:problem=mixed beam	!	!	!	!	!	!	!	!	!	!	!	!	!	!	!	!
8A\Lyy	.	.	0ryy	.	0ryy	.	0ryy	.	0ryy	.	8ryy	.	2ryy	0r	0r	.
8AA/yy	.	.	.	.	.	.	.	.	.	.	8a\yy	o-	.	.	.	.
8C#/yy	.	.	.	.	.	.	.	.	.	.	8e\yy	-san-	.	.	.	.
8D/Jyy	.	.	.	.	.	.	.	.	.	.	8f#\yy	-na	.	.	.	.
=54	=54	=54	=54	=54	=54	=54	=54	=54	=54	=54	=54	=54	=54	=54	=54	=54
8E\Lyy	n3	.	.	.	.	.	.	.	.	.	8gn\yy	in	2ryy	.	.	.
8BB\yy	.	.	.	.	.	.	.	.	.	.	16f#\LLyy	ex-	.	.	.	.
.	.	.	.	.	.	.	.	.	.	.	16g\JJyy	.	.	.	.	.
8C#\yy	.	.	.	.	.	.	.	.	.	.	16a\LLyy	-cel-	.	.	.	.
.	.	.	.	.	.	.	.	.	.	.	16g\yy	.	.	.	.	.
8AA\Jyy	.	.	.	.	.	.	.	.	.	.	16f#\yy	.	.	.	.	.
.	.	.	.	.	.	.	.	.	.	.	16e\JJyy	.	.	.	.	.
=55	=55	=55	=55	=55	=55	=55	=55	=55	=55	=55	=55	=55	=55	=55	=55	=55
8D\Lyy	.	.	.	.	.	.	.	.	.	.	8f#\yy	-sis	2ryy	.	.	.
8D\yy	.	.	.	.	.	.	.	.	.	.	8ryy	.	.	.	.	.
8G\yy	.	.	.	.	.	.	.	.	.	.	8ryy	.	.	.	.	.
8D\Jyy	.	.	.	.	.	.	.	.	.	.	8dd\yy	o-	.	.	.	.
=56	=56	=56	=56	=56	=56	=56	=56	=56	=56	=56	=56	=56	=56	=56	=56	=56
4A\yy	.	.	.	.	.	.	.	.	.	.	8dd\yy	-san-	2ryy	.	.	.
.	.	.	.	.	.	.	.	.	.	.	16cc#\LLyy	-na	.	.	.	.
.	.	.	.	.	.	.	.	.	.	.	16b\JJyy	.	.	.	.	.
4AA/yy	.	.	.	.	.	.	.	.	.	.	8cc#\yy	in	.	.	.	.
.	.	.	.	.	.	.	.	.	.	.	16dd\LLyy	ex-	.	.	.	.
.	.	.	.	.	.	.	.	.	.	.	16ee\JJyy	.	.	.	.	.
!	!	!	!	!	!	!	!	!	!	!	!LO:LB:g=original	!	!	!	!	!
=57	=57	=57	=57	=57	=57	=57	=57	=57	=57	=57	=57	=57	=57	=57	=57	=57
4D\yy	.	.	0ryy	.	0ryy	.	0ryy	.	0ryy	.	8dd\Lyy	-cel-	2ryy	0r	0r	.
.	.	.	.	.	.	.	.	.	.	.	16b\Lyy	.	.	.	.	.
.	.	.	.	.	.	.	.	.	.	.	16a\JJyy	.	.	.	.	.
4GG/yy	.	.	.	.	.	.	.	.	.	.	8g\Lyy	.	.	.	.	.
.	.	.	.	.	.	.	.	.	.	.	8f#\Jyy	.	.	.	.	.
=58	=58	=58	=58	=58	=58	=58	=58	=58	=58	=58	=58	=58	=58	=58	=58	=58
4AA/yy	.	.	.	.	.	.	.	.	.	.	4e\yy	.	2ryy	.	.	.
4ryy	.	.	.	.	.	.	.	.	.	.	16a\LLyy	.	.	.	.	.
.	.	.	.	.	.	.	.	.	.	.	16b\yy	.	.	.	.	.
.	.	.	.	.	.	.	.	.	.	.	16cc#\yy	.	.	.	.	.
.	.	.	.	.	.	.	.	.	.	.	16dd\JJyy	.	.	.	.	.
=59	=59	=59	=59	=59	=59	=59	=59	=59	=59	=59	=59	=59	=59	=59	=59	=59
8ryy	.	.	.	.	.	.	.	.	.	.	8ee\yy	.	2ryy	.	.	.
8A\Lyy	.	.	.	.	.	.	.	.	.	.	16dd\LLyy	-sis	.	.	.	.
.	.	.	.	.	.	.	.	.	.	.	16cc#\JJyy	.	.	.	.	.
8d\yy	.	.	.	.	.	.	.	.	.	.	8dd\yy	in	.	.	.	.
8G\Jyy	.	.	.	.	.	.	.	.	.	.	8ee\yy	ex-	.	.	.	.
=60	=60	=60	=60	=60	=60	=60	=60	=60	=60	=60	=60	=60	=60	=60	=60	=60
4A\yy	6 4	.	.	.	.	.	.	.	.	.	4dd\yy	-cel-	2ryy	.	.	.
4AA/yy	5 3	.	.	.	.	.	.	.	.	.	4cc#\yy	.	.	.	.	.
!LO:LB:g=original	!	!	!	!	!	!	!	!	!	!	!	!	!	!	!	!
=61	=61	=61	=61	=61	=61	=61	=61	=61	=61	=61	=61	=61	=61	=61	=61	=61
!LO:TX:a:t=Tut	!	!	!	!	!	!	!	!	!	!	!	!	!	!	!	!
8D/Lyy	.	.	4dd\yy	.	4dd\yy	.	8ryy	.	8ryy	.	8dd\yy	-sis	2ryy	4f#/	4dd\	.
8D/yy	.	.	.	.	.	.	8D/yy	O-	8f#\yy	O-	8a\yy	o-	.	.	.	.
8C#/yy	.	.	4ee\yy	.	4ee\yy	.	8C#/Lyy	-san-	8e\Lyy	-san-	4a\yy	-san-	.	4a/	4ee\	.
8AA/Jyy	.	.	.	.	.	.	8AA/Jyy	.	8c#\Jyy	.	.	.	.	.	.	.
!	!	!	!	!	!	!	!	!	!	!	!	!	!	!LO:LB:g=original	!	!
=62	=62	=62	=62	=62	=62	=62	=62	=62	=62	=62	=62	=62	=62	=62	=62	=62
8D\Lyy	.	.	8ff#\Lyy	.	8ff#\Lyy	.	8D\yy	-na	8d\yy	-na	8a,<\yy	-na	2ryy	8dd\L	8ff#\L	.
*	*	*	*	*	*	*	*	*	*	*ij	*	*ij	*	*	*	*
16F#\Lyy	.	.	8dd\yy	.	8dd\yy	.	16F#\LLyy	o-	8d\yy	O-	8a\yy	o-	.	8dd\	8dd\	.
16E\JJyy	.	.	.	.	.	.	16E\JJyy	.	.	.	.	.	.	.	.	.
8D\Lyy	.	.	8ff#\yy	.	8ff#\yy	.	8D\yy	-san-	8d\yy	-san-	8a\yy	-san-	.	8dd\	8ff#\	.
8E\Jyy	.	.	8gg\Jyy	.	8gg\Jyy	.	8E\yy	-na	8c#\yy	-na	8a\yy	-na	.	8a\J	8gg\J	.
*	*	*	*	*	*	*	*	*	*	*Xij	*	*Xij	*	*	*	*
!	!	!	!	!	!	!	!LO:LB:g=original	!	!	!	!	!	!	!	!LO:LB:g=original	!
=63	=63	=63	=63	=63	=63	=63	=63	=63	=63	=63	=63	=63	=63	=63	=63	=63
4F#\yy	.	.	8aa\Lyy	.	8aa\Lyy	.	8F#\yy	in	8d\yy	in	8a\yy	in	2ryy	8dd\L	8aa\L	.
.	.	.	16gg\Lyy	.	16gg\Lyy	.	8F#\yy	ex-	8d\yy	ex-	16b\LLyy	ex-	.	16ee\L	16gg\L	.
.	.	.	16ff#\JJyy	.	16ff#\JJyy	.	.	.	.	.	16a\JJyy	.	.	16ff#\JJ	16ff#\JJ	.
4G\yy	.	.	8ee\Lyy	.	8ee\Lyy	.	4G\yy	-cel-	4B\yy	-cel-	8g\Lyy	-cel-	.	8ee\L	8ee\L	.
.	.	.	8dd\Jyy	.	8dd\Jyy	.	.	.	.	.	8f#\Jyy	.	.	8dd\J	8dd\J	.
!	!	!	!	!	!	!	!	!	!	!	!LO:LB:g=original	!	!	!	!	!
=64	=64	=64	=64	=64	=64	=64	=64	=64	=64	=64	=64	=64	=64	=64	=64	=64
!LO:TX:t=P:problem=mixed beam	!	!	!	!	!	!	!	!	!	!	!	!	!	!	!	!
.	.	.	8qqdd/yy	.	8qqdd/yy	.	.	.	.	.	.	.	.	.	.	.
8A\Lyy	.	.	4cc#\yy	.	4cc#\yy	.	4A\yy	-sis	4A\yy	-sis	4e\yy	-sis	2ryy	4a/	4a/	.
8AA/yy	.	.	.	.	.	.	.	.	.	.	.	.	.	.	.	.
8C#/yy	.	.	4cc#\yy	.	[y4ee\yy	.	4C#/yy	o-	4c#\yy	o-	4cc#\yy	o-	.	4r	4r	.
8AA/Jyy	5	.	.	.	.	.	.	.	.	.	.	.	.	.	.	.
=65	=65	=65	=65	=65	=65	=65	=65	=65	=65	=65	=65	=65	=65	=65	=65	=65
4D\yy	9 2	.	8cc#\Lyy	.	8ee\L]yy	.	(y4D\yy	-san-	4c#\yy	-san-	(y4f#\yy	-san-	2ryy	1r	1r	.
.	.	.	16b\Lyy	.	16dd\Lyy	.	.	.	.	.	.	.	.	.	.	.
.	.	.	16a\JJyy	.	16cc#\JJyy	.	.	.	.	.	.	.	.	.	.	.
4E\yy	2 5	.	8b\Lyy	.	8dd\Lyy	.	4E\)yy	.	4B\yy	.	4g#X\)yy	.	.	.	.	.
.	.	.	8b\Jyy	.	8dd\Jyy	.	.	.	.	.	.	.	.	.	.	.
!	!	!	!	!	!	!	!	!	!LO:LB:g=original	!	!	!	!	!	!	!
=66	=66	=66	=66	=66	=66	=66	=66	=66	=66	=66	=66	=66	=66	=66	=66	=66
.	.	.	(y8qqb/yy	.	8qqdd/yy	.	.	.	.	.	.	.	.	.	.	.
4F#\yy	5	.	4a/)yy	.	4cc#\yy	.	4F#\yy	-na	4A\yy	-na	4a\yy	-na	2ryy	.	.	.
4C#/yy	6	.	8cc#\Lyy	.	8ee\Lyy	.	8ryy	.	8ryy	.	8ryy	.	.	.	.	.
*	*	*	*	*	*	*	*	*	*	*	*	*ij	*	*	*	*
.	.	.	8cc#\Jyy	.	8ee\Jyy	.	8C#/yy	o-	8d\yy	o-	8a\yy	o-	.	.	.	.
=67	=67	=67	=67	=67	=67	=67	=67	=67	=67	=67	=67	=67	=67	=67	=67	=67
.	.	.	8qqdd/yy	.	(y<8qqff#/yy	.	.	.	(y<8qqd/yy	.	.	.	.	.	.	.
*	*	*	*	*	*	*	*	*ij	*	*	*	*	*	*	*	*
4D\yy	9 2	.	8cc#\Lyy	.	8ee\L)yy	.	8D\yy	-san-	8c#\)yy	-san-	8f#\yy	-san-	2ryy	2r	2r	.
.	.	.	16b\Lyy	.	16dd\Lyy	.	8D\yy	-na	16B\LLyy	-na	8f#\yy	-na	.	.	.	.
.	.	.	16a\JJyy	.	16cc#\JJyy	.	.	.	16A\JJyy	.	.	.	.	.	.	.
4E\yy	2 5	.	8b\Lyy	.	8dd\Lyy	.	8E\yy	in	8B\yy	in	8g#X\yy	in	.	.	.	.
.	.	.	8b\Jyy	.	8dd\Jyy	.	8E\yy	ex-	8B\yy	ex-	8g#\yy	ex-	.	.	.	.
!	!	!	!	!	!LO:LB:g=original	!	!	!	!	!	!	!	!	!	!	!
=68	=68	=68	=68	=68	=68	=68	=68	=68	=68	=68	=68	=68	=68	=68	=68	=68
8AA/Lyy	6\	.	8cc#\Lyy	.	8cc#\Lyy	.	8A\Lyy	-cel-	4e\yy	-cel-	8a\Lyy	-cel-	2ryy	4r	4r	.
!	!	!	!	!	!LO:N:vis=8	!	!	!	!	!	!	!	!	!	!	!
8BB/yy	.	.	8dd\Jyy	.	16aa\Lyy	.	8B\Jyy	.	.	.	8g#X\Jyy	.	.	.	.	.
.	.	.	.	.	(y32gg#X\Lyy	.	.	.	.	.	.	.	.	.	.	.
.	.	.	.	.	32ff#\JJJ)yy	.	.	.	.	.	.	.	.	.	.	.
!	!	!	!LO:TX:t=P:problem=mixed beam	!	!LO:TX:t=P:problem=mixed beam	!	!	!	!	!	!	!	!	!	!	!
8C#/yy	.	.	16.ee\LLyy	.	16.ee\LLyy	.	8c#\yy	-sis	8e\yy	-sis	8a\yy	-sis	.	16.r	16.r	.
*	*	*	*	*	*	*	*	*Xij	*	*	*	*	*	*	*	*
.	.	.	32e/JJkyy	.	32e/JJkyy	.	.	.	.	.	.	.	.	32ee\KLL	32ee\KLL	.
8E/Jyy	#	.	16.g#X/LLyy	.	16.b\LLyy	.	8E\yy	o-	8e\yy	o-	8g#\yy	o-	.	16.ee\	16.ee\	.
.	.	.	32b/JJkyy	.	32dd\JJkyy	.	.	.	.	.	.	.	.	32ee\JJk	32ee\JJk	.
!	!	!	!LO:LB:g=original	!	!	!	!LO:LB:g=original	!	!	!	!	!	!	!	!	!
=69	=69	=69	=69	=69	=69	=69	=69	=69	=69	=69	=69	=69	=69	=69	=69	=69
*	*	*	*	*	*	*	*	*	*	*ij	*	*	*	*	*	*
8AA/Lyy	.	.	8cc#\Lyy	.	8cc#\Lyy	.	8AA/yy	-san-	8e\yy	-san-	8a\yy	-san-	2ryy	4ee\	4ee\	.
!	!	!	!	!	!LO:N:vis=8	!	!	!	!	!	!	!	!	!	!	!
8BB/yy	.	.	8dd\Jyy	.	(y16aa\Lyy	.	8BB/yy	-na	8e\yy	-na	8g#X\yy	-na	.	.	.	.
.	.	.	.	.	32gg#X\Lyy	.	.	.	.	.	.	.	.	.	.	.
.	.	.	.	.	32ff#\JJJ)yy	.	.	.	.	.	.	.	.	.	.	.
!	!	!	!LO:TX:t=P:problem=mixed beam	!	!LO:TX:t=P:problem=mixed beam	!	!	!	!	!	!	!	!	!	!	!
8C#/yy	.	.	16.ee\LLyy	.	16.ee\LLyy	.	8C#/yy	in	8e\yy	in	8a\yy	in	.	16.r	16.r	.
.	.	.	32e/JJkyy	.	32e/JJkyy	.	.	.	.	.	.	.	.	32ee\KLL	32ee\KLL	.
8E/Jyy	#	.	16.g#X/LLyy	.	16.b\LLyy	.	8D/yy	ex-	8e\yy	ex-	8g#\yy	ex-	.	16.ee\	16.ee\	.
.	.	.	32b/JJkyy	.	32dd\JJkyy	.	.	.	.	.	.	.	.	32ee\JJk	32ee\JJk	.
*	*	*	*	*	*	*	*	*	*	*Xij	*	*	*	*	*	*
!LO:LB:g=original	!	!	!	!	!	!	!	!	!	!	!	!	!	!	!	!
=70	=70	=70	=70	=70	=70	=70	=70	=70	=70	=70	=70	=70	=70	=70	=70	=70
*	*	*	*	*	*Xtuplet	*	*	*	*	*	*	*	*	*	*	*
!LO:TX:t=P:problem=mixed beam	!	!	!	!	!	!	!	!	!	!	!	!	!	!	!	!
8AA/Lyy	.	.	8e/yy	.	24cc#\LLyy	.	4A\yy	-cel-	4e\yy	-cel-	(y4.a\yy	-cel-	2ryy	8a\L	8ee\	.
*	*	*	*	*	*	*	*	*	*	*	*	*Xij	*	*	*	*
.	.	.	.	.	24ee\yy	.	.	.	.	.	.	.	.	.	.	.
.	.	.	.	.	24aa\JJyy	.	.	.	.	.	.	.	.	.	.	.
8A\Jyy	.	.	4a/yy	.	24cc#\LLyy	.	.	.	.	.	.	.	.	8ee\	4aa\	.
.	.	.	.	.	24b\yy	.	.	.	.	.	.	.	.	.	.	.
.	.	.	.	.	24a\JJyy	.	.	.	.	.	.	.	.	.	.	.
.	.	.	.	.	(y<8qqa/yy	.	.	.	.	.	.	.	.	.	.	.
8D\Lyy	6 5	.	.	.	4bMy\)yy	.	8D\Lyy	.	8f#\Lyy	.	.	.	.	8ff#\	.	.
8E\Jyy	#	.	8g#X/yy	.	.	.	8E\Jyy	.	8e\Jyy	.	8g#X\)yy	.	.	8ee\J	8gg#X\	.
!	!	!	!	!	!	!	!	!	!	!	!	!	!	!	!LO:LB:g=original	!
=71	=71	=71	=71	=71	=71	=71	=71	=71	=71	=71	=71	=71	=71	=71	=71	=71
!LO:TX:t=P:problem=mixed beam	!	!	!	!	!	!	!	!	!	!	!	!	!	!	!	!
8AA/Lyy	.	.	4a/yy	.	4a/yy	.	4A\yy	-sis	4e\yy	-sis	4a\yy	-sis	2ryy	4ee\	4aa\	.
16A\Lyy	.	.	.	.	.	.	.	.	.	.	.	.	.	.	.	.
16B\JJyy	.	.	.	.	.	.	.	.	.	.	.	.	.	.	.	.
8A\Lyy	.	.	8ryy	.	8ryy	.	8ryy	.	8ryy	.	8ryy	.	.	4r	4r	.
*	*	*	*	*	*	*	*	*ij	*	*	*	*	*	*	*	*
8G\Jyy	.	.	8a/yy	.	8a/yy	.	8G\yy	o-	8B\yy	o-	8a\yy	o-	.	.	.	.
!	!	!	!	!	!	!	!	!	!LO:LB:g=original	!	!LO:PB:g=original	!	!	!LO:LB:g=original	!	!
=72	=72	=72	=72	=72	=72	=72	=72	=72	=72	=72	=72	=72	=72	=72	=72	=72
*	*	*	*	*	*	*	*	*	*	*ij	*	*	*	*	*	*
8F#\Lyy	6	.	8a/Lyy	.	16a\LL|yy	.	8F#\yy	-san-	8d\yy	-san-	8a\yy	-san-	2ryy	8r	8r	.
.	.	.	.	.	(y16dd\yy	.	.	.	.	.	.	.	.	.	.	.
8F#\yy	.	.	8a/yy	.	16cc#\yy	.	8F#\yy	-na	8d\yy	-na	8a\yy	-na	.	8dd\L	8dd\L	.
.	.	.	.	.	16dd\JJ)yy	.	.	.	.	.	.	.	.	.	.	.
8F#\yy	.	.	8a/yy	.	24aa\LL|yy	.	8F#\yy	in	8d\yy	in	8a\yy	in	.	8dd\	8dd\	.
.	.	.	.	.	(y24cc#\yy	.	.	.	.	.	.	.	.	.	.	.
.	.	.	.	.	24dd\JJ)yy	.	.	.	.	.	.	.	.	.	.	.
!	!	!	!	!	!LO:TX:t=P:problem=mixed beam	!	!	!	!	!	!	!	!	!	!	!
8F#\Jyy	5-	.	8a/Jyy	.	24aa\LL|yy	.	8F#\yy	ex-	8d\yy	ex-	8a\yy	ex-	.	8dd\J	8dd\J	.
.	.	.	.	.	(y24a/yy	.	.	.	.	.	.	.	.	.	.	.
.	.	.	.	.	24ccn/JJ)yy	.	.	.	.	.	.	.	.	.	.	.
=73	=73	=73	=73	=73	=73	=73	=73	=73	=73	=73	=73	=73	=73	=73	=73	=73
8G\Lyy	6	.	4aMy/yy	.	4ccn\yy	.	4G\yy	-cel-	4d\yy	-cel-	4a\yy	-cel-	2ryy	8dd\L	8dd\L	.
8G\yy	.	.	.	.	.	.	.	.	.	.	.	.	.	16dd\L	16dd\L	.
.	.	.	.	.	.	.	.	.	.	.	.	.	.	16dd\JJ	16dd\JJ	.
8G\yy	.	.	8g/Lyy	.	8b\Lyy	.	8G\yy	-sis	8d\yy	-sis	8g\yy	-sis	.	8dd\	8dd\	.
*	*	*	*	*	*	*	*	*Xij	*	*Xij	*	*ij	*	*	*	*
8G\Jyy	.	.	8b/Jyy	.	8b\Jyy	.	8G\yy	o-	8d\yy	o-	8b\yy	o-	.	8r	8r	.
!	!	!	!	!	!LO:LB:g=original	!	!	!	!	!	!	!	!	!	!	!
=74	=74	=74	=74	=74	=74	=74	=74	=74	=74	=74	=74	=74	=74	=74	=74	=74
*	*	*	*	*	*	*	*	*	*	*ij	*	*	*	*	*	*
8G#X\Lyy	4	.	8b\Lyy	.	16b\LL|yy	.	8G#X\yy	-san-	8e\yy	-san-	8b\yy	-san-	2ryy	8r	8r	.
.	.	.	.	.	(y16ee\yy	.	.	.	.	.	.	.	.	.	.	.
8G#\yy	3	.	8b\yy	.	16dd#X\yy	.	8G#\yy	-na	8e\yy	-na	8b\yy	-na	.	8ee\L	8ee\L	.
.	.	.	.	.	16ee\JJ)yy	.	.	.	.	.	.	.	.	.	.	.
!	!	!	!	!	!	!	!LO:LB:g=original	!	!	!	!	!	!	!	!	!
8G#\yy	6	.	8b\yy	.	24bb\LL|yy	.	8G#X\yy	in	8e\yy	in	8b\yy	in	.	8ee\	8ee\	.
.	.	.	.	.	(y24dd#X\yy	.	.	.	.	.	.	.	.	.	.	.
.	.	.	.	.	24ee\JJ)yy	.	.	.	.	.	.	.	.	.	.	.
8G#\Jyy	.	.	8b\Jyy	.	24bb\LL|yy	.	8G#\yy	ex-	8e\yy	ex-	8b\yy	ex-	.	8ee\J	8ee\J	.
.	.	.	.	.	(y24b\yy	.	.	.	.	.	.	.	.	.	.	.
.	.	.	.	.	24ddn\JJ)yy	.	.	.	.	.	.	.	.	.	.	.
=75	=75	=75	=75	=75	=75	=75	=75	=75	=75	=75	=75	=75	=75	=75	=75	=75
8A\Lyy	4	.	4bMy\yy	.	4ddMy\yy	.	4A\yy	-cel-	4e\yy	-cel-	4bMy\yy	-cel-	2ryy	8a/L	8ee\L	.
8A\yy	#	.	.	.	.	.	.	.	.	.	.	.	.	16a/L	16ee\L	.
.	.	.	.	.	.	.	.	.	.	.	.	.	.	16a/JJ	16ee\JJ	.
!	!	!	!	!	!	!	!	!	!	!	!	!	!	!LO:TX:t=P:problem=mixed beam	!	!
8A\yy	.	.	8a\Lyy	.	8cc#\Lyy	.	8A\yy	-sis	8e\yy	-sis	8a\yy	-sis	.	8a/L	8ee\L	.
*	*	*	*	*	*	*	*	*	*	*Xij	*	*Xij	*	*	*	*
8F#\Jyy	.	.	8ff#\Jyy	.	[y<8aa\Jyy	.	8F#\yy	o-	8f#\yy	o-	8dd\yy	o-	.	8ff#\J	8aa\J	.
=76	=76	=76	=76	=76	=76	=76	=76	=76	=76	=76	=76	=76	=76	=76	=76	=76
.	.	.	(y<16qqgg/yy	.	.	.	.	.	.	.	.	.	.	(<16qqgg/	(<16qqbb/	.
4Gn\yy	9 2	.	8ff#\L)yy	.	8aa\L]yy	.	(y4Gn\yy	-san-	4f#\yy	-san-	(y4b\yy	-san-	2ryy	8ff#\L)	8aa\L)	.
.	.	.	16ee\Lyy	.	16gg\Lyy	.	.	.	.	.	.	.	.	16ee\L	16gg\L	.
.	.	.	16dd\JJyy	.	16ff#\JJyy	.	.	.	.	.	.	.	.	16dd\JJ	16ff#\JJ	.
4A\yy	2 5	.	8ee\Lyy	.	8gg\Lyy	.	4A\)yy	.	4e\yy	.	4cc#\)yy	.	.	8ee\L	8gg\L	.
!	!	!	!	!	!LO:TX:b:i:t=Verte Cito	!	!	!	!	!	!	!	!	!	!	!
.	.	.	8ee\Jyy	.	8gg\Jyy	.	.	.	.	.	.	.	.	8ee\J	8gg\J	.
!	!	!	!	!	!LO:PB:g=original	!	!	!	!	!	!	!	!	!	!	!
=77	=77	=77	=77	=77	=77	=77	=77	=77	=77	=77	=77	=77	=77	=77	=77	=77
.	.	.	8qqee/yy	.	8qqgg/yy	.	.	.	.	.	.	.	.	(<8qqee/	(<8qqgg/	.
4B\yy	5	.	4dd\yy	.	4ff#\yy	.	4B\yy	-na	4d\yy	-na	4dd\yy	-na	2ryy	4dd\)	4ff#\)	.
8F#\Lyy	6	.	8ff#\Lyy	.	8aa\Lyy	.	8ryy	.	8ryy	.	8ryy	.	.	8ff#\L	8aa\L	.
8F#\Jyy	.	.	8ff#\Jyy	.	[y<8aa\Jyy	.	8F#\yy	o-	8f#\yy	o-	8dd\yy	o-	.	8ff#\J	8aa\J	.
!	!	!	!LO:LB:g=original	!	!	!	!	!	!LO:LB:g=original	!	!	!	!	!	!LO:LB:g=original	!
=78	=78	=78	=78	=78	=78	=78	=78	=78	=78	=78	=78	=78	=78	=78	=78	=78
.	.	.	(y<8qqgg/yy	.	.	.	.	.	.	.	.	.	.	(<16qqgg/	(<16qqbb/	.
*	*	*	*	*	*	*	*	*ij	*	*	*	*ij	*	*	*	*
8G\Lyy	9 2	.	8ff#\L)yy	.	8aa\L]yy	.	8G\yy	-san-	8f#\yy	-san-	8b\yy	-san-	2ryy	8ff#\L)	8aa\L)	.
8G\yy	.	.	16ee\Lyy	.	16gg\Lyy	.	8G\yy	-na	(y16e\LLyy	-na	8b\yy	-na	.	16ee\L	16gg\L	.
.	.	.	16dd\JJyy	.	16ff#\JJyy	.	.	.	16d\JJ)yy	.	.	.	.	16dd\JJ	16ff#\JJ	.
8A\yy	2 5	.	8ee\Lyy	.	8gg\Lyy	.	8A\yy	in	8e\yy	in	8cc#\yy	in	.	8ee\L	8gg\L	.
8A\Jyy	.	.	8ee\Jyy	.	8gg\Jyy	.	8A\yy	ex-	8e\yy	ex-	8cc#\yy	ex-	.	8ee\J	8gg\J	.
!LO:LB:g=original	!	!	!	!	!	!	!	!	!	!	!LO:LB:g=original	!	!	!LO:LB:g=original	!	!
=79	=79	=79	=79	=79	=79	=79	=79	=79	=79	=79	=79	=79	=79	=79	=79	=79
.	.	.	.	.	.	.	.	.	.	.	.	.	.	(<16qqee/	.	.
8D\Lyy	6	.	8ff#\Lyy	.	8ff#\Lyy	.	(y8D\Lyy	-cel-	8d\Lyy	-cel-	4a\yy	-cel-	2ryy	8dd\)	8ff#\	.
!	!	!	!	!	!LO:N:vis=8	!	!	!	!	!	!	!	!	!	!	!
8E\yy	.	.	8gg\Jyy	.	16ddd\Lyy	.	8E\J)yy	.	8B\Jyy	.	.	.	.	8r	8r	.
.	.	.	.	.	(y32ccc#\Lyy	.	.	.	.	.	.	.	.	.	.	.
.	.	.	.	.	32bb\JJJ)yy	.	.	.	.	.	.	.	.	.	.	.
!	!	!	!LO:TX:t=P:problem=mixed beam	!	!LO:TX:t=P:problem=mixed beam	!	!	!	!	!	!	!	!	!	!	!
8F#\yy	.	.	16.aa\LLyy	.	(y16.aa\LLyy	.	8F#\yy	-sis	8d\yy	-sis	8a\yy	-sis	.	16.r	16.r	.
*	*	*	*	*	*	*	*	*Xij	*	*	*	*Xij	*	*	*	*
.	.	.	32a/JJkyy	.	32a/JJk)yy	.	.	.	.	.	.	.	.	32dd/KLL	32ff#\KLL	.
8A\Jyy	.	.	16.cc#\LLyy	.	16.ee\LLyy	.	8A\yy	o-	8c#\yy	o-	8a\yy	o-	.	16.a/	16.ee\	.
.	.	.	32ee\JJkyy	.	32gg\JJkyy	.	.	.	.	.	.	.	.	32ee/JJk	32gg\JJk	.
!	!	!	!	!	!	!	!LO:LB:g=original	!	!	!	!	!	!	!	!	!
=80	=80	=80	=80	=80	=80	=80	=80	=80	=80	=80	=80	=80	=80	=80	=80	=80
*	*	*	*	*	*	*	*	*ij	*	*ij	*	*ij	*	*	*	*
8D\Lyy	.	.	8ff#\Lyy	.	8ff#\Lyy	.	8D\yy	-san-	8d\yy	-san-	8a\yy	-san-	2ryy	8dd\	8ff#\	.
!	!	!	!	!	!LO:N:vis=8	!	!	!	!	!	!	!	!	!	!	!
8E\yy	.	.	8gg\Jyy	.	16ddd\Lyy	.	8E\yy	-na	8c#\yy	-na	8a\yy	-na	.	8r	8r	.
.	.	.	.	.	(y32ccc#\Lyy	.	.	.	.	.	.	.	.	.	.	.
.	.	.	.	.	32bb\JJJ)yy	.	.	.	.	.	.	.	.	.	.	.
!	!	!	!LO:TX:t=P:problem=mixed beam	!	!LO:TX:t=P:problem=mixed beam	!	!	!	!	!	!	!	!	!	!	!
8F#\yy	.	.	16.aa\LLyy	.	16.aa\LLyy	.	8F#\yy	in	8d\yy	in	8a\yy	in	.	16.r	16.r	.
.	.	.	32a/JJkyy	.	32a/JJkyy	.	.	.	.	.	.	.	.	32dd/KLL	32ff#\KLL	.
8A\Jyy	.	.	16.cc#\LLyy	.	16.ee\LLyy	.	8A\yy	ex-	8e\yy	ex-	8a\yy	ex-	.	16.a/	16.ee\	.
*	*	*	*	*	*	*	*	*Xij	*	*	*	*	*	*	*	*
.	.	.	32ee\JJkyy	.	32gg\JJkyy	.	.	.	.	.	.	.	.	32ee/JJk	32gg\JJk	.
=81	=81	=81	=81	=81	=81	=81	=81	=81	=81	=81	=81	=81	=81	=81	=81	=81
!LO:TX:t=P:problem=mixed beam	!	!	!	!	!	!	!	!	!	!	!	!	!	!	!	!
8d\Lyy	.	.	4dd\yy	.	24ff#\LLyy	.	4d\yy	-cel-	(y4d\yy	-cel-	4a\yy	-cel-	2ryy	4dd\	4ff#\	.
.	.	.	.	.	24aa\yy	.	.	.	.	.	.	.	.	.	.	.
.	.	.	.	.	24ddd\JJyy	.	.	.	.	.	.	.	.	.	.	.
8D/Jyy	.	.	.	.	24ff#\LLyy	.	.	.	.	.	.	.	.	.	.	.
.	.	.	.	.	24ee\yy	.	.	.	.	.	.	.	.	.	.	.
.	.	.	.	.	24dd\JJyy	.	.	.	.	.	.	.	.	.	.	.
!LO:TX:t=P:problem=mixed beam	!	!	!	!	!	!	!	!	!	!	!	!	!	!	!	!
8A\Lyy	.	.	4cc#\yy	.	4eeMy\yy	.	4A\yy	.	4c#\)yy	.	8b\yy	-sis	.	4a/	4eeM\	.
*	*	*	*	*	*	*	*	*	*	*	*	*Xij	*	*	*	*
8AA/Jyy	.	.	.	.	.	.	.	.	.	.	8a\yy	o-	.	.	.	.
=82	=82	=82	=82	=82	=82	=82	=82	=82	=82	=82	=82	=82	=82	=82	=82	=82
!	!	!LO:DY:a	!	!	!	!	!	!	!	!	!	!	!	!	!	!
8D\Lyy	.	py	4dd\yy	py	4dd\yy	.	4D\yy	-sis	4d\yy	-sis	4a\yy	-san-	2ryy	4f#/	4dd\	.
*	*	*	*	*	*	*	*	*	*	*Xij	*	*	*	*	*	*
8D\yy	.	.	.	.	.	.	.	.	.	.	.	.	.	.	.	.
.	.	.	.	.	.	.	.	.	(y<16qqd/LLyy	.	.	.	.	.	.	.
.	.	.	.	.	.	.	.	.	16qqe/JJyy	.	.	.	.	.	.	.
8F#\yy	.	.	4ff#\yy	.	[y4aa\yy	.	8ryy	.	4f#\)yy	o-	4dd\yy	.	.	4r	4r	.
8D\Jyy	.	.	.	.	.	.	8D\yy	o-	.	.	.	.	.	.	.	.
=83	=83	=83	=83	=83	=83	=83	=83	=83	=83	=83	=83	=83	=83	=83	=83	=83
.	.	.	8qqgg/yy	.	.	.	.	.	.	.	.	.	.	.	.	.
!	!	!	!	!	!	!	!	!	!	!	!	!	!	!	!LO:TX:a:t=1	!
4G\yy	9 2	.	8ff#\Lyy	.	8aa\L]yy	.	(y4G\yy	-san-	(y4f#\yy	-san-	4b\yy	.	2ryy	2r	2r	.
.	.	.	16ee\Lyy	.	16gg\Lyy	.	.	.	.	.	.	.	.	.	.	.
.	.	.	16dd\JJyy	.	16ff#\JJyy	.	.	.	.	.	.	.	.	.	.	.
4A\yy	2	.	8ee\Lyy	.	8gg\Lyy	.	4A\)yy	.	4e\)yy	.	4cc#\yy	.	.	.	.	.
.	.	.	8ee\Jyy	.	8gg\Jyy	.	.	.	.	.	.	.	.	.	.	.
!	!	!	!	!	!	!	!	!	!LO:LB:g=original	!	!	!	!	!	!	!
=84	=84	=84	=84	=84	=84	=84	=84	=84	=84	=84	=84	=84	=84	=84	=84	=84
.	.	.	8qqee/yy	.	(y<8qqgg/yy	.	.	.	.	.	.	.	.	.	.	.
4B\yy	5	.	4dd\yy	.	4ff#\)yy	.	4B\yy	-na	4d\yy	-na	4a\yy	-na	2ryy	4r	4r	.
!	!	!	!	!	!	!	!	!	!	!	!	!	!	!	!	!LO:DY:rj
8F#\Lyy	6	.	8ff#\Lyy	.	8aa\Lyy	.	8ryy	.	8ryy	.	8ryy	.	.	8ff#\L	8aa\L	p
*	*	*	*	*	*	*	*	*	*	*	*	*ij	*	*	*	*
8F#\Jyy	.	.	8ff#\Jyy	.	8aa\Jyy	.	8F#\yy	o-	8f#\yy	o-	8dd\yy	o-	.	8ff#\J	8aa\J	.
!	!	!	!	!	!LO:LB:g=original	!	!	!	!	!	!	!	!	!	!LO:LB:g=original	!
=85	=85	=85	=85	=85	=85	=85	=85	=85	=85	=85	=85	=85	=85	=85	=85	=85
.	.	.	8qqgg/yy	.	8qqbb/yy	.	.	.	.	.	.	.	.	(<16qqgg/	(<16qqbb/	.
*	*	*	*	*	*	*	*	*ij	*	*	*	*	*	*	*	*
8G\Lyy	9	.	8ff#\Lyy	.	8aa\Lyy	.	8G\yy	-san-	8f#\yy	-san-	8b\yy	-san-	2ryy	8ff#\L)	8aa\L)	.
8G\yy	2	.	16ee\Lyy	.	16gg\Lyy	.	8G\yy	-na	(y16e\LLyy	-na	8b\yy	-na	.	16ee\L	16gg\L	.
.	.	.	16dd\JJyy	.	16ff#\JJyy	.	.	.	16d\JJ)yy	.	.	.	.	16dd\JJ	16ff#\JJ	.
8A\yy	2	.	8ee\Lyy	.	8gg\Lyy	.	8A\yy	in	8e\yy	in	8cc#\yy	in	.	8ee\L	8gg\L	.
8A\Jyy	.	.	8ee\Jyy	.	8gg\Jyy	.	8A\yy	ex-	8e\yy	ex-	8cc#\yy	ex-	.	8ee\J	8gg\J	.
!	!	!	!LO:LB:g=original	!	!	!	!	!	!	!	!LO:LB:g=original	!	!	!LO:LB:g=original	!	!
=86	=86	=86	=86	=86	=86	=86	=86	=86	=86	=86	=86	=86	=86	=86	=86	=86
!	!	!LO:DY:a	!	!	!	!	!	!	!	!	!	!	!	!	!	!
8D\Lyy	.	fy	8ff#\Lyy	.	8ff#\Lyy	fy	8D\Lyy	-cel-	(y8d\Lyy	-cel-	4a\yy	-cel-	2ryy	8dd\	8ff#\	.
!	!	!	!	!	!LO:N:vis=8	!	!	!	!	!	!	!	!	!	!	!
8E\yy	.	.	8gg\Jyy	.	16ddd\Lyy	.	8E\Jyy	.	8c#\J)yy	.	.	.	.	8r	8r	.
.	.	.	.	.	(y32ccc#\Lyy	.	.	.	.	.	.	.	.	.	.	.
.	.	.	.	.	32bb\JJJ)yy	.	.	.	.	.	.	.	.	.	.	.
!	!	!	!LO:TX:t=P:problem=mixed beam	!	!LO:TX:t=P:problem=mixed beam	!	!	!	!	!	!	!	!	!	!	!
8F#\yy	.	.	16.aa\LLyy	.	16.aa\LLyy	.	8F#\yy	-sis	8d\yy	-sis	8a\yy	-sis	.	16.r	16.r	.
*	*	*	*	*	*	*	*	*Xij	*	*	*	*Xij	*	*	*	*
.	.	.	32a/JJkyy	.	32a/JJkyy	.	.	.	.	.	.	.	.	32dd/KLL	32ff#\KLL	.
8A\Jyy	.	.	16.cc#\LLyy	.	16.ee\LLyy	.	8A\yy	o-	8c#\yy	o-	8a\yy	o-	.	16.a/	16.ee\	.
.	.	.	32ee\JJkyy	.	32gg\JJkyy	.	.	.	.	.	.	.	.	32ee/JJk	32gg\JJk	.
!	!	!	!	!	!	!	!LO:LB:g=original	!	!	!	!	!	!	!	!	!
=87	=87	=87	=87	=87	=87	=87	=87	=87	=87	=87	=87	=87	=87	=87	=87	=87
*	*	*	*	*	*	*	*	*	*	*	*	*ij	*	*	*	*
8D\Lyy	.	.	8ff#\Lyy	.	8ff#\Lyy	.	8D\yy	-san-	8d\yy	-san-	8a\yy	-san-	2ryy	8dd\	8ff#\	.
!	!	!	!	!	!LO:N:vis=8	!	!	!	!	!	!	!	!	!	!	!
8E\yy	.	.	8gg\Jyy	.	16ddd\Lyy	.	8E\yy	-na	8c#\yy	-na	8a\yy	-na	.	8r	8r	.
.	.	.	.	.	(y32ccc#\Lyy	.	.	.	.	.	.	.	.	.	.	.
.	.	.	.	.	32bb\JJJ)yy	.	.	.	.	.	.	.	.	.	.	.
!	!	!	!LO:TX:t=P:problem=mixed beam	!	!LO:TX:t=P:problem=mixed beam	!	!	!	!	!	!	!	!	!	!	!
8F#\yy	.	.	16.aa\LLyy	.	16.aa\LLyy	.	8F#\yy	in	8d\yy	in	8a\yy	in	.	16.r	16.r	.
.	.	.	32a/JJkyy	.	32a/JJkyy	.	.	.	.	.	.	.	.	32dd/KLL	32ff#\KLL	.
8A\Jyy	.	.	16.cc#\LLyy	.	16.ee\LLyy	.	8G\yy	ex-	8e\yy	ex-	8a\yy	ex-	.	16.a/	16.ee\	.
.	.	.	32ee\JJkyy	.	32gg\JJkyy	.	.	.	.	.	.	.	.	32ee/JJk	32gg\JJk	.
*	*	*	*	*	*	*	*	*	*	*	*	*Xij	*	*	*	*
=88	=88	=88	=88	=88	=88	=88	=88	=88	=88	=88	=88	=88	=88	=88	=88	=88
!LO:TX:t=P:problem=mixed beam	!	!	!	!	!	!	!	!	!	!	!	!	!	!	!	!
8d\Lyy	.	.	4dd\yy	.	24ff#\LLyy	.	4d\yy	-cel-	(y4d\yy	-cel-	4a\yy	-cel-	2ryy	4dd\	4ff#\	.
.	.	.	.	.	24aa\yy	.	.	.	.	.	.	.	.	.	.	.
.	.	.	.	.	24ddd\JJyy	.	.	.	.	.	.	.	.	.	.	.
8D/Jyy	.	.	.	.	24ff#\LLyy	.	.	.	.	.	.	.	.	.	.	.
.	.	.	.	.	24ee\yy	.	.	.	.	.	.	.	.	.	.	.
.	.	.	.	.	24dd\JJyy	.	.	.	.	.	.	.	.	.	.	.
!LO:TX:t=P:problem=mixed beam	!	!	!	!	!	!	!	!	!	!	!	!	!	!	!	!
8A\Lyy	.	.	4cc#my\yy	.	4eeMy\yy	.	4A\yy	.	4c#\)yy	.	8b\Lyy	.	.	4a/	4eeM\	.
8AA/Jyy	.	.	.	.	.	.	.	.	.	.	8a\Jyy	.	.	.	.	.
=89	=89	=89	=89	=89	=89	=89	=89	=89	=89	=89	=89	=89	=89	=89	=89	=89
8D/Lyy	.	.	8dd\Lyy	.	8dd\Lyy	.	4D/yy	-sis	4d\yy	-sis	4a\yy	-sis	2ryy	8f#/L	8dd\L	.
8AA/Jyy	.	.	8a\Jyy	.	8a\Jyy	.	.	.	.	.	.	.	.	8a/J	8a\J	.
!	!	!	!	!	!LO:TX:a:t=29	!	!	!	!	!	!	!	!	!	!	!
4DD/yy	.	.	4d/yy	.	4d/yy	.	4ryy	.	4ryy	.	4ryy	.	.	4d/	4d/	.
==	==	==	==	==	==	==	==	==	==	==	==	==	==	==	==	==
*-	*-	*-	*-	*-	*-	*-	*-	*-	*-	*-	*-	*-	*-	*-	*-	*-
!!!system-decoration: [(g1)][(g2)][(g3)]<s9>
!!!RDF**kern: > = above
!!!RDF**kern: < = below
!!!RDF**kern: | = vertical stroke
!!!RDF**dynam: f = "for"
!!!RDF**dynam: p = "pia"
!!!ENC: Andrzej Kubiczek
!!!END: 2020-12-20
!!!ENC: Andrzej Kubiczek
!!!END: 2022-01-09
!!!YEC: Copyright 2022 Narodowy Instytut Fryderyka Chopina (https://polishscores.org)
!!!YEM: Licence CC BY 4.0 (https://creativecommons.org/licenses/by/4.0)
